!!!!SEGMENT: pl-wn--mus-ii-28-247_zelenski-wladyslaw--kantata-na-pamiatke-trzechsetnej-rocznicy-zalozenia-gimnazyum-sw-anny.krn
!!!cenid: 18xx:3793
!!!COM: Żeleński, Władysław
!!!COM-rismID:
!!!CDT:
!!!CNT:
!!!OTL: Kantata na pamiątkę trzechsetnej rocznicy założenia gimnazyum św. Anny
!!!PDT: 1889
!!!AGN:
!!!SMS-siglum: PL-Wn
!!!SMS-shelfmark: Mus.II.28.247
!!!SMS-shelfwork: W
!!!SMS-variant:
!!!SMS-altvar:
!!!NIFC-rismSourceID:
!!!NIFC-islandoraID:
!!!URL-pdf-islandora:
!!!URL-scan: https://polona.pl/item/kantata-na-glosy-mieszane-z-towarzyszeniem-instrumentow-detych-na-pamiatke,MTEzNjU2OTk1/0/#info:metadata @EN{Scan on Polona} @PL{Skany w portalu Polona}
!!!ONB-nifc:
!!!AIN: 1 alto 1 bass 2 piano 1 soprn 1 tenor
!!!key: E-
**kern	**dynam	**kern	**dynam	**kern	**text	**dynam	**kern	**text	**dynam	**kern	**text	**dynam	**kern	**text	**dynam
*part6	*part6	*part5	*part5	*part4	*part4	*part4	*part3	*part3	*part3	*part2	*part2	*part2	*part1	*part1	*part1
*group2	*	*group2	*	*group1	*group1	*	*group1	*group1	*	*group1	*group1	*	*group1	*group1	*
*staff6	*	*staff5	*	*staff4	*staff4	*	*staff3	*staff3	*	*staff2	*staff2	*	*staff1	*staff1	*
*	*	*I"[Piano]	*	*I"Basy.	*	*	*I"Tenory.	*	*	*I"Alty.	*	*	*I"Soprany.	*	*
*Ipiano	*	*Ipiano	*	*Ibass	*	*	*Itenor	*	*	*Ialto	*	*	*Isoprn	*	*
*ICklav	*	*ICklav	*	*ICvox	*	*	*ICvox	*	*	*ICvox	*	*	*ICvox	*	*
*clefF4	*	*clefG2	*	*clefF4	*	*	*clefG2	*	*	*clefG2	*	*	*clefG2	*	*
*	*	*	*	*	*	*	*ITrd8c12	*	*	*	*	*	*	*	*
*k[b-e-a-]	*	*k[b-e-a-]	*	*k[b-e-a-]	*	*	*k[b-e-a-]	*	*	*k[b-e-a-]	*	*	*k[b-e-a-]	*	*
*E-:	*	*E-:	*	*E-:	*	*	*E-:	*	*	*E-:	*	*	*E-:	*	*
*M3/4	*	*M3/4	*	*M3/4	*	*	*M3/4	*	*	*M3/4	*	*	*M3/4	*	*
=1	=1	=1	=1	=1	=1	=1	=1	=1	=1	=1	=1	=1	=1	=1	=1
*tremolo	*	*	*	*	*	*	*	*	*	*	*	*	*	*	*
!!LO:TX:t=P:problem:dynamika w wokalnych umieszczona pod pięciolinią pod tekstem
!LO:TX:a:rj:t=Orkiestra.	!	!LO:TX:a:B:t=Allegro moderato.	!	!	!	!	!	!	!	!	!	!	!	!	!
32BBB-/LLL	.	4r	f	2.ryy	.	.	2.ryy	.	.	2.ryy	.	.	2.ryy	.	.
32BB-/	.	.	.	.	.	.	.	.	.	.	.	.	.	.	.
32BBB-/	.	.	.	.	.	.	.	.	.	.	.	.	.	.	.
32BB-/	.	.	.	.	.	.	.	.	.	.	.	.	.	.	.
32BBB-/	.	.	.	.	.	.	.	.	.	.	.	.	.	.	.
32BB-/	.	.	.	.	.	.	.	.	.	.	.	.	.	.	.
32BBB-/	.	.	.	.	.	.	.	.	.	.	.	.	.	.	.
32BB-/	.	.	.	.	.	.	.	.	.	.	.	.	.	.	.
!	!	!LO:TX:b:i:t=Cor.	!	!	!	!	!	!	!	!	!	!	!	!	!
32BBB-/	.	[2f [2A-^\	.	.	.	.	.	.	.	.	.	.	.	.	.
32BB-/	.	.	.	.	.	.	.	.	.	.	.	.	.	.	.
32BBB-/	.	.	.	.	.	.	.	.	.	.	.	.	.	.	.
32BB-/	.	.	.	.	.	.	.	.	.	.	.	.	.	.	.
32BBB-/	.	.	.	.	.	.	.	.	.	.	.	.	.	.	.
32BB-/	.	.	.	.	.	.	.	.	.	.	.	.	.	.	.
32BBB-/	.	.	.	.	.	.	.	.	.	.	.	.	.	.	.
32BB-/	.	.	.	.	.	.	.	.	.	.	.	.	.	.	.
32BBB-/	.	.	.	.	.	.	.	.	.	.	.	.	.	.	.
32BB-/	.	.	.	.	.	.	.	.	.	.	.	.	.	.	.
32BBB-/	.	.	.	.	.	.	.	.	.	.	.	.	.	.	.
32BB-/	.	.	.	.	.	.	.	.	.	.	.	.	.	.	.
32BBB-/	.	.	.	.	.	.	.	.	.	.	.	.	.	.	.
32BB-/	.	.	.	.	.	.	.	.	.	.	.	.	.	.	.
32BBB-/	.	.	.	.	.	.	.	.	.	.	.	.	.	.	.
32BB-/JJJ	.	.	.	.	.	.	.	.	.	.	.	.	.	.	.
=2	=2	=2	=2	=2	=2	=2	=2	=2	=2	=2	=2	=2	=2	=2	=2
*	*	*^	*	*	*	*	*	*	*	*	*	*	*	*	*
*rep	*	*	*	*	*	*	*	*	*	*	*	*	*	*	*	*
32BBB-/LLL	.	4f_< 4A-\_<	4rff	.	2.ryy	.	.	2.ryy	.	.	2.ryy	.	.	2.ryy	.	.
32BB-/	.	.	.	.	.	.	.	.	.	.	.	.	.	.	.	.
32BBB-/	.	.	.	.	.	.	.	.	.	.	.	.	.	.	.	.
32BB-/	.	.	.	.	.	.	.	.	.	.	.	.	.	.	.	.
32BBB-/	.	.	.	.	.	.	.	.	.	.	.	.	.	.	.	.
32BB-/	.	.	.	.	.	.	.	.	.	.	.	.	.	.	.	.
32BBB-/	.	.	.	.	.	.	.	.	.	.	.	.	.	.	.	.
32BB-/	.	.	.	.	.	.	.	.	.	.	.	.	.	.	.	.
32BBB-/	.	8f] 8A-\]	8rff	.	.	.	.	.	.	.	.	.	.	.	.	.
32BB-/	.	.	.	.	.	.	.	.	.	.	.	.	.	.	.	.
32BBB-/	.	.	.	.	.	.	.	.	.	.	.	.	.	.	.	.
32BB-/	.	.	.	.	.	.	.	.	.	.	.	.	.	.	.	.
!	!	!LO:TX:b:i:t=Trombe	!	!	!	!	!	!	!	!	!	!	!	!	!	!
!	!	!LO:TX:a:i:t=marc.	!	!	!	!	!	!	!	!	!	!	!	!	!	!
32BBB-/	.	8cc-XL 8e-'/	8ryy	.	.	.	.	.	.	.	.	.	.	.	.	.
32BB-/	.	.	.	.	.	.	.	.	.	.	.	.	.	.	.	.
32BBB-/	.	.	.	.	.	.	.	.	.	.	.	.	.	.	.	.
32BB-/	.	.	.	.	.	.	.	.	.	.	.	.	.	.	.	.
32BBB-/	.	8b- 8d'/	4ryy	.	.	.	.	.	.	.	.	.	.	.	.	.
32BB-/	.	.	.	.	.	.	.	.	.	.	.	.	.	.	.	.
32BBB-/	.	.	.	.	.	.	.	.	.	.	.	.	.	.	.	.
32BB-/	.	.	.	.	.	.	.	.	.	.	.	.	.	.	.	.
32BBB-/	.	8cc-J 8e-'/	.	.	.	.	.	.	.	.	.	.	.	.	.	.
32BB-/	.	.	.	.	.	.	.	.	.	.	.	.	.	.	.	.
32BBB-/	.	.	.	.	.	.	.	.	.	.	.	.	.	.	.	.
32BB-/JJJ	.	.	.	.	.	.	.	.	.	.	.	.	.	.	.	.
*Xtremolo	*	*	*	*	*	*	*	*	*	*	*	*	*	*	*	*
*Xrep	*	*	*	*	*	*	*	*	*	*	*	*	*	*	*	*
*	*	*v	*v	*	*	*	*	*	*	*	*	*	*	*	*	*
=3	=3	=3	=3	=3	=3	=3	=3	=3	=3	=3	=3	=3	=3	=3	=3
*^	*	*	*	*	*	*	*	*	*	*	*	*	*	*	*
*	*tremolo	*	*	*	*	*	*	*	*	*	*	*	*	*	*	*
*	*rep	*	*	*	*	*	*	*	*	*	*	*	*	*	*	*
4rB	32BBB-\LLL	.	[4b- [4d/	.	2.ryy	.	.	2.ryy	.	.	2.ryy	.	.	2.ryy	.	.
.	32BB-\	.	.	.	.	.	.	.	.	.	.	.	.	.	.	.
.	32BBB-\	.	.	.	.	.	.	.	.	.	.	.	.	.	.	.
.	32BB-\	.	.	.	.	.	.	.	.	.	.	.	.	.	.	.
.	32BBB-\	.	.	.	.	.	.	.	.	.	.	.	.	.	.	.
.	32BB-\	.	.	.	.	.	.	.	.	.	.	.	.	.	.	.
.	32BBB-\	.	.	.	.	.	.	.	.	.	.	.	.	.	.	.
.	32BB-\	.	.	.	.	.	.	.	.	.	.	.	.	.	.	.
8rB	32BBB-\	.	8b-] 8d/]	.	.	.	.	.	.	.	.	.	.	.	.	.
.	32BB-\	.	.	.	.	.	.	.	.	.	.	.	.	.	.	.
.	32BBB-\	.	.	.	.	.	.	.	.	.	.	.	.	.	.	.
.	32BB-\	.	.	.	.	.	.	.	.	.	.	.	.	.	.	.
!LO:TX:b:i:t=Trombon	!	!	!	!	!	!	!	!	!	!	!	!	!	!	!	!
8A-'>/L	32BBB-\	.	8r	.	.	.	.	.	.	.	.	.	.	.	.	.
.	32BB-\	.	.	.	.	.	.	.	.	.	.	.	.	.	.	.
.	32BBB-\	.	.	.	.	.	.	.	.	.	.	.	.	.	.	.
.	32BB-\	.	.	.	.	.	.	.	.	.	.	.	.	.	.	.
8G'>/	32BBB-\	.	4r	.	.	.	.	.	.	.	.	.	.	.	.	.
.	32BB-\	.	.	.	.	.	.	.	.	.	.	.	.	.	.	.
.	32BBB-\	.	.	.	.	.	.	.	.	.	.	.	.	.	.	.
.	32BB-\	.	.	.	.	.	.	.	.	.	.	.	.	.	.	.
8F'>/J	32BBB-\	.	.	.	.	.	.	.	.	.	.	.	.	.	.	.
.	32BB-\	.	.	.	.	.	.	.	.	.	.	.	.	.	.	.
.	32BBB-\	.	.	.	.	.	.	.	.	.	.	.	.	.	.	.
.	32BB-\JJJ	.	.	.	.	.	.	.	.	.	.	.	.	.	.	.
*	*Xrep	*	*	*	*	*	*	*	*	*	*	*	*	*	*	*
=4	=4	=4	=4	=4	=4	=4	=4	=4	=4	=4	=4	=4	=4	=4	=4	=4
*	*rep	*	*	*	*	*	*	*	*	*	*	*	*	*	*	*
8.En/L	32BBB-\LLL	.	4r	.	2.ryy	.	.	2.ryy	.	.	2.ryy	.	.	2.ryy	.	.
.	32BB-\	.	.	.	.	.	.	.	.	.	.	.	.	.	.	.
.	32BBB-\	.	.	.	.	.	.	.	.	.	.	.	.	.	.	.
.	32BB-\	.	.	.	.	.	.	.	.	.	.	.	.	.	.	.
.	32BBB-\	.	.	.	.	.	.	.	.	.	.	.	.	.	.	.
.	32BB-\	.	.	.	.	.	.	.	.	.	.	.	.	.	.	.
16F/Jk	32BBB-\	.	.	.	.	.	.	.	.	.	.	.	.	.	.	.
.	32BB-\	.	.	.	.	.	.	.	.	.	.	.	.	.	.	.
8G/	32BBB-\	.	8r	.	.	.	.	.	.	.	.	.	.	.	.	.
.	32BB-\	.	.	.	.	.	.	.	.	.	.	.	.	.	.	.
.	32BBB-\	.	.	.	.	.	.	.	.	.	.	.	.	.	.	.
.	32BB-\	.	.	.	.	.	.	.	.	.	.	.	.	.	.	.
8rB	32BBB-\	.	8dd-XL 8f'\	.	.	.	.	.	.	.	.	.	.	.	.	.
.	32BB-\	.	.	.	.	.	.	.	.	.	.	.	.	.	.	.
.	32BBB-\	.	.	.	.	.	.	.	.	.	.	.	.	.	.	.
.	32BB-\	.	.	.	.	.	.	.	.	.	.	.	.	.	.	.
4rB	32BBB-\	.	8cc 8en'\	.	.	.	.	.	.	.	.	.	.	.	.	.
.	32BB-\	.	.	.	.	.	.	.	.	.	.	.	.	.	.	.
.	32BBB-\	.	.	.	.	.	.	.	.	.	.	.	.	.	.	.
.	32BB-\	.	.	.	.	.	.	.	.	.	.	.	.	.	.	.
.	32BBB-\	.	8dd-J 8f'\	.	.	.	.	.	.	.	.	.	.	.	.	.
.	32BB-\	.	.	.	.	.	.	.	.	.	.	.	.	.	.	.
.	32BBB-\	.	.	.	.	.	.	.	.	.	.	.	.	.	.	.
.	32BB-\JJJ	.	.	.	.	.	.	.	.	.	.	.	.	.	.	.
*	*Xrep	*	*	*	*	*	*	*	*	*	*	*	*	*	*	*
=5	=5	=5	=5	=5	=5	=5	=5	=5	=5	=5	=5	=5	=5	=5	=5	=5
*	*rep	*	*	*	*	*	*	*	*	*	*	*	*	*	*	*
4rB	32BBB-\LLL	.	[4cc [4en/	.	2.ryy	.	.	2.ryy	.	.	2.ryy	.	.	2.ryy	.	.
.	32BB-\	.	.	.	.	.	.	.	.	.	.	.	.	.	.	.
.	32BBB-\	.	.	.	.	.	.	.	.	.	.	.	.	.	.	.
.	32BB-\	.	.	.	.	.	.	.	.	.	.	.	.	.	.	.
.	32BBB-\	.	.	.	.	.	.	.	.	.	.	.	.	.	.	.
.	32BB-\	.	.	.	.	.	.	.	.	.	.	.	.	.	.	.
.	32BBB-\	.	.	.	.	.	.	.	.	.	.	.	.	.	.	.
.	32BB-\	.	.	.	.	.	.	.	.	.	.	.	.	.	.	.
8rB	32BBB-\	.	8cc] 8e/]	.	.	.	.	.	.	.	.	.	.	.	.	.
.	32BB-\	.	.	.	.	.	.	.	.	.	.	.	.	.	.	.
.	32BBB-\	.	.	.	.	.	.	.	.	.	.	.	.	.	.	.
.	32BB-\	.	.	.	.	.	.	.	.	.	.	.	.	.	.	.
8A-'>/L	32BBB-\	.	8r	.	.	.	.	.	.	.	.	.	.	.	.	.
.	32BB-\	.	.	.	.	.	.	.	.	.	.	.	.	.	.	.
.	32BBB-\	.	.	.	.	.	.	.	.	.	.	.	.	.	.	.
.	32BB-\	.	.	.	.	.	.	.	.	.	.	.	.	.	.	.
8G'>/	32BBB-\	.	4r	.	.	.	.	.	.	.	.	.	.	.	.	.
.	32BB-\	.	.	.	.	.	.	.	.	.	.	.	.	.	.	.
.	32BBB-\	.	.	.	.	.	.	.	.	.	.	.	.	.	.	.
.	32BB-\	.	.	.	.	.	.	.	.	.	.	.	.	.	.	.
8F'>/J	32BBB-\	.	.	.	.	.	.	.	.	.	.	.	.	.	.	.
.	32BB-\	.	.	.	.	.	.	.	.	.	.	.	.	.	.	.
.	32BBB-\	.	.	.	.	.	.	.	.	.	.	.	.	.	.	.
.	32BB-\JJJ	.	.	.	.	.	.	.	.	.	.	.	.	.	.	.
*	*Xrep	*	*	*	*	*	*	*	*	*	*	*	*	*	*	*
!!LO:LB:g=original
=6	=6	=6	=6	=6	=6	=6	=6	=6	=6	=6	=6	=6	=6	=6	=6	=6
*	*	*	*^	*	*	*	*	*	*	*	*	*	*	*	*	*
*	*	*	*	*^	*	*	*	*	*	*	*	*	*	*	*	*	*
*	*rep	*	*	*	*	*	*	*	*	*	*	*	*	*	*	*	*	*
8.F/L	32BBB-\LLL	.	4r	4.ryy	4.rAyy	.	2.ryy	.	.	2.ryy	.	.	2.ryy	.	.	2.ryy	.	.
.	32BB-\	.	.	.	.	.	.	.	.	.	.	.	.	.	.	.	.	.
.	32BBB-\	.	.	.	.	.	.	.	.	.	.	.	.	.	.	.	.	.
.	32BB-\	.	.	.	.	.	.	.	.	.	.	.	.	.	.	.	.	.
.	32BBB-\	.	.	.	.	.	.	.	.	.	.	.	.	.	.	.	.	.
.	32BB-\	.	.	.	.	.	.	.	.	.	.	.	.	.	.	.	.	.
16G/Jk	32BBB-\	.	.	.	.	.	.	.	.	.	.	.	.	.	.	.	.	.
.	32BB-\	.	.	.	.	.	.	.	.	.	.	.	.	.	.	.	.	.
8A-/	32BBB-\	.	8r	.	.	.	.	.	.	.	.	.	.	.	.	.	.	.
.	32BB-\	.	.	.	.	.	.	.	.	.	.	.	.	.	.	.	.	.
.	32BBB-\	.	.	.	.	.	.	.	.	.	.	.	.	.	.	.	.	.
.	32BB-\	.	.	.	.	.	.	.	.	.	.	.	.	.	.	.	.	.
!	!	!	!LO:TX:a:t=Bl.	!	!	!	!	!	!	!	!	!	!	!	!	!	!	!
8rB	32BBB-\	.	(8ff/L	4ee- 4cc-X\	8f\L	.	.	.	.	.	.	.	.	.	.	.	.	.
.	32BB-\	.	.	.	.	.	.	.	.	.	.	.	.	.	.	.	.	.
.	32BBB-\	.	.	.	.	.	.	.	.	.	.	.	.	.	.	.	.	.
.	32BB-\	.	.	.	.	.	.	.	.	.	.	.	.	.	.	.	.	.
!	!	!	!	!	!	!LO:HP:t=cresc. molto	!	!	!	!	!	!	!	!	!	!	!	!
4rB	32BBB-\	.	8een/)	.	8en\	<	.	.	.	.	.	.	.	.	.	.	.	.
.	32BB-\	.	.	.	.	.	.	.	.	.	.	.	.	.	.	.	.	.
.	32BBB-\	.	.	.	.	.	.	.	.	.	.	.	.	.	.	.	.	.
.	32BB-\	.	.	.	.	.	.	.	.	.	.	.	.	.	.	.	.	.
.	32BBB-\	.	8ff/J	8ee-X 8cc-\	8f\J	.	.	.	.	.	.	.	.	.	.	.	.	.
.	32BB-\	.	.	.	.	.	.	.	.	.	.	.	.	.	.	.	.	.
.	32BBB-\	.	.	.	.	.	.	.	.	.	.	.	.	.	.	.	.	.
.	32BB-\JJJ	.	.	.	.	.	.	.	.	.	.	.	.	.	.	.	.	.
*	*Xrep	*	*	*	*	*	*	*	*	*	*	*	*	*	*	*	*	*
*	*	*	*v	*v	*v	*	*	*	*	*	*	*	*	*	*	*	*	*
=7	=7	=7	=7	=7	=7	=7	=7	=7	=7	=7	=7	=7	=7	=7	=7	=7
*	*rep	*	*	*	*	*	*	*	*	*	*	*	*	*	*	*
8.rB	32BBB-\LLL	.	4aa- 4ff 4ee- 4cc-X 4a-\	.	2.ryy	.	.	2.ryy	.	.	2.ryy	.	.	2.ryy	.	.
.	32BB-\	.	.	.	.	.	.	.	.	.	.	.	.	.	.	.
.	32BBB-\	.	.	.	.	.	.	.	.	.	.	.	.	.	.	.
.	32BB-\	.	.	.	.	.	.	.	.	.	.	.	.	.	.	.
.	32BBB-\	.	.	.	.	.	.	.	.	.	.	.	.	.	.	.
.	32BB-\	.	.	.	.	.	.	.	.	.	.	.	.	.	.	.
16B-/	32BBB-\	.	.	.	.	.	.	.	.	.	.	.	.	.	.	.
.	32BB-\	.	.	.	.	.	.	.	.	.	.	.	.	.	.	.
[>2c-X/	32BBB-\	.	8r	.	.	.	.	.	.	.	.	.	.	.	.	.
.	32BB-\	.	.	.	.	.	.	.	.	.	.	.	.	.	.	.
.	32BBB-\	.	.	.	.	.	.	.	.	.	.	.	.	.	.	.
.	32BB-\	.	.	.	.	.	.	.	.	.	.	.	.	.	.	.
.	32BBB-\	.	(8ccc-XL [<8aa- [8ff 8cc-\	.	.	.	.	.	.	.	.	.	.	.	.	.
.	32BB-\	.	.	.	.	.	.	.	.	.	.	.	.	.	.	.
.	32BBB-\	.	.	.	.	.	.	.	.	.	.	.	.	.	.	.
.	32BB-\	.	.	.	.	.	.	.	.	.	.	.	.	.	.	.
.	32BBB-\	.	8bb- 8aa-] 8ff] 8b-\)	.	.	.	.	.	.	.	.	.	.	.	.	.
.	32BB-\	.	.	.	.	.	.	.	.	.	.	.	.	.	.	.
.	32BBB-\	.	.	.	.	.	.	.	.	.	.	.	.	.	.	.
.	32BB-\	.	.	.	.	.	.	.	.	.	.	.	.	.	.	.
.	32BBB-\	.	8ccc-J 8aa- 8ff 8cc-\	.	.	.	.	.	.	.	.	.	.	.	.	.
.	32BB-\	.	.	.	.	.	.	.	.	.	.	.	.	.	.	.
.	32BBB-\	.	.	.	.	.	.	.	.	.	.	.	.	.	.	.
.	32BB-\JJJ	.	.	.	.	.	.	.	.	.	.	.	.	.	.	.
*	*Xrep	*	*	*	*	*	*	*	*	*	*	*	*	*	*	*
=8	=8	=8	=8	=8	=8	=8	=8	=8	=8	=8	=8	=8	=8	=8	=8	=8
*	*	*	*^	*	*	*	*	*	*	*	*	*	*	*	*	*
*	*	*	*	*^	*	*	*	*	*	*	*	*	*	*	*	*	*
*	*rep	*	*	*	*	*	*	*	*	*	*	*	*	*	*	*	*	*
8.c-/L]	32BBB-\LLL	.	4eee- 4ccc-X 4aa- 4ee-\	4.ryy	4.rAyy	.	2.ryy	.	.	2.ryy	.	.	2.ryy	.	.	2.ryy	.	.
.	32BB-\	.	.	.	.	.	.	.	.	.	.	.	.	.	.	.	.	.
.	32BBB-\	.	.	.	.	.	.	.	.	.	.	.	.	.	.	.	.	.
.	32BB-\	.	.	.	.	.	.	.	.	.	.	.	.	.	.	.	.	.
.	32BBB-\	.	.	.	.	.	.	.	.	.	.	.	.	.	.	.	.	.
.	32BB-\	.	.	.	.	.	.	.	.	.	.	.	.	.	.	.	.	.
16B-/Jk	32BBB-\	.	.	.	.	.	.	.	.	.	.	.	.	.	.	.	.	.
.	32BB-\	.	.	.	.	.	.	.	.	.	.	.	.	.	.	.	.	.
*v	*v	*	*	*	*	*	*	*	*	*	*	*	*	*	*	*	*	*
*	*	*8va	*	*	*	*	*	*	*	*	*	*	*	*	*	*	*
*^	*	*	*	*	*	*	*	*	*	*	*	*	*	*	*	*	*
[>2A-/	32BBB-\	.	8raa	.	.	.	.	.	.	.	.	.	.	.	.	.	.	.
.	32BB-\	.	.	.	.	.	.	.	.	.	.	.	.	.	.	.	.	.
.	32BBB-\	.	.	.	.	.	.	.	.	.	.	.	.	.	.	.	.	.
.	32BB-\	.	.	.	.	.	.	.	.	.	.	.	.	.	.	.	.	.
.	32BBB-\	.	(8fff/L	4eee- 4ccc-\	8ff\L	.	.	.	.	.	.	.	.	.	.	.	.	.
.	32BB-\	.	.	.	.	.	.	.	.	.	.	.	.	.	.	.	.	.
.	32BBB-\	.	.	.	.	.	.	.	.	.	.	.	.	.	.	.	.	.
.	32BB-\	.	.	.	.	.	.	.	.	.	.	.	.	.	.	.	.	.
.	32BBB-\	.	8eeen/)	.	8een\	.	.	.	.	.	.	.	.	.	.	.	.	.
.	32BB-\	.	.	.	.	.	.	.	.	.	.	.	.	.	.	.	.	.
.	32BBB-\	.	.	.	.	.	.	.	.	.	.	.	.	.	.	.	.	.
.	32BB-\	.	.	.	.	.	.	.	.	.	.	.	.	.	.	.	.	.
.	32BBB-\	.	8fff/J	8eee-X 8ccc-\	8ff\J	.	.	.	.	.	.	.	.	.	.	.	.	.
.	32BB-\	.	.	.	.	.	.	.	.	.	.	.	.	.	.	.	.	.
.	32BBB-\	.	.	.	.	.	.	.	.	.	.	.	.	.	.	.	.	.
.	32BB-\JJJ	.	.	.	.	.	.	.	.	.	.	.	.	.	.	.	.	.
*	*Xrep	*	*	*	*	*	*	*	*	*	*	*	*	*	*	*	*	*
*	*	*	*v	*v	*v	*	*	*	*	*	*	*	*	*	*	*	*	*
=9	=9	=9	=9	=9	=9	=9	=9	=9	=9	=9	=9	=9	=9	=9	=9	=9
*	*rep	*	*	*	*	*	*	*	*	*	*	*	*	*	*	*
8A-/]	32BBB-\LLL	.	8aaa- 8eee- 8ccc-X 8aa-\	.	2.ryy	.	.	2.ryy	.	.	2.ryy	.	.	2.ryy	.	.
.	32BB-\	.	.	.	.	.	.	.	.	.	.	.	.	.	.	.
.	32BBB-\	.	.	.	.	.	.	.	.	.	.	.	.	.	.	.
.	32BB-\	.	.	.	.	.	.	.	.	.	.	.	.	.	.	.
*v	*v	*	*	*	*	*	*	*	*	*	*	*	*	*	*	*
*	*	*X8va	*	*	*	*	*	*	*	*	*	*	*	*	*
*^	*	*	*	*	*	*	*	*	*	*	*	*	*	*	*
8rB	32BBB-\	.	8r	.	.	.	.	.	.	.	.	.	.	.	.	.
.	32BB-\	.	.	.	.	.	.	.	.	.	.	.	.	.	.	.
.	32BBB-\	.	.	.	.	.	.	.	.	.	.	.	.	.	.	.
.	32BB-\	.	.	.	.	.	.	.	.	.	.	.	.	.	.	.
4rB	32BBB-\	.	[2ff [2ee- [2cc-X [2f^>/	ff	.	.	.	.	.	.	.	.	.	.	.	.
.	32BB-\	.	.	.	.	.	.	.	.	.	.	.	.	.	.	.
.	32BBB-\	.	.	.	.	.	.	.	.	.	.	.	.	.	.	.
.	32BB-\	.	.	.	.	.	.	.	.	.	.	.	.	.	.	.
.	32BBB-\	.	.	.	.	.	.	.	.	.	.	.	.	.	.	.
.	32BB-\	.	.	.	.	.	.	.	.	.	.	.	.	.	.	.
.	32BBB-\	.	.	.	.	.	.	.	.	.	.	.	.	.	.	.
.	32BB-\	.	.	.	.	.	.	.	.	.	.	.	.	.	.	.
4rB	32BBB-\	.	.	.	.	.	.	.	.	.	.	.	.	.	.	.
.	32BB-\	.	.	.	.	.	.	.	.	.	.	.	.	.	.	.
.	32BBB-\	.	.	.	.	.	.	.	.	.	.	.	.	.	.	.
.	32BB-\	.	.	.	.	.	.	.	.	.	.	.	.	.	.	.
.	32BBB-\	.	.	.	.	.	.	.	.	.	.	.	.	.	.	.
.	32BB-\	.	.	.	.	.	.	.	.	.	.	.	.	.	.	.
.	32BBB-\	.	.	.	.	.	.	.	.	.	.	.	.	.	.	.
.	32BB-\JJJ	.	.	.	.	.	.	.	.	.	.	.	.	.	.	.
*Xtremolo	*Xtremolo	*	*	*	*	*	*	*	*	*	*	*	*	*	*	*
*	*Xrep	*	*	*	*	*	*	*	*	*	*	*	*	*	*	*
*v	*v	*	*	*	*	*	*	*	*	*	*	*	*	*	*	*
=10	=10	=10	=10	=10	=10	=10	=10	=10	=10	=10	=10	=10	=10	=10	=10
8BB- 8BBB-/	.	4ff] 4ee-] 4cc-] 4f/]	.	2.ryy	.	.	2.ryy	.	.	2.ryy	.	.	2.ryy	.	.
8r	.	.	.	.	.	.	.	.	.	.	.	.	.	.	.
(4F 4FF'/	.	(>4ee- 4a- 4e-'>/	p	.	.	.	.	.	.	.	.	.	.	.	.
4F 4AA-'/)	.	4cc-X 4f 4e- 4c-X'>/)	.	.	.	.	.	.	.	.	.	.	.	.	.
!!LO:LB:g=original
=11	=11	=11	=11	=11	=11	=11	=11	=11	=11	=11	=11	=11	=11	=11	=11
!	!	!	!	!LO:TX:a:t=Basy.	!	!	!LO:TX:a:t=Tenory.	!	!	!LO:TX:a:t=Alty.	!	!	!LO:TX:a:t=Soprany.	!	!
[2.F [2.BB-/	.	[2.b- 2.f [2.d 2.B-/	.	2.r	.	.	2.r	.	.	2.r	.	.	2.r	.	.
=12	=12	=12	=12	=12	=12	=12	=12	=12	=12	=12	=12	=12	=12	=12	=12
*	*	*	*^	*	*	*	*	*	*	*	*	*	*	*	*
8F] 8BB-/]	.	8b-] 8f 8d] 8B-/	.	.	4r	.	.	4r	.	.	2.r	.	.	2.r	.	.
8r	.	8r	.	.	.	.	.	.	.	.	.	.	.	.	.	.
4r;	.	4r;	.	.	4r;	.	.	4r;	.	.	.	.	.	.	.	.
!	!	!	!LO:DY:rj	!LO:DY:b=2:rj	!LO:TX:a:i:t=con energia	!	!	!	!	!LO:DY:b:rj	!	!	!	!	!	!
4B- 4BB-\	.	4b-\	mf	mf	8.B-\	Po-	.	8.B-\	Po-	f	.	.	.	.	.	.
.	.	.	.	.	16B-\	-zdro-	.	16B-\	-zdro-	.	.	.	.	.	.	.
*	*	*	*v	*v	*	*	*	*	*	*	*	*	*	*	*	*
=13	=13	=13	=13	=13	=13	=13	=13	=13	=13	=13	=13	=13	=13	=13	=13
!	!	!LO:N:n=2:vis=8	!	!LO:N:vis=8	!	!	!	!	!	!	!	!	!	!	!
4E- 4EE-/	.	8.ee-L 8.g\	.	8.e-\	-wio-	.	8.g\	-wio-	.	2.r	.	.	2.r	.	.
.	.	16ffJk 16b-\	.	16d\	-na	.	16f\	-na	.	.	.	.	.	.	.
8E- 8EE-/	.	8gg 8ee-\	.	4.c\	bądź	.	4.e-\	bądź	.	.	.	.	.	.	.
8r	.	8r	.	.	.	.	.	.	.	.	.	.	.	.	.
(4c 4A-\	.	(4cc 4a-\	p	.	.	.	.	.	.	.	.	.	.	.	.
.	.	.	.	8A-\	ty	.	8c\	ty	.	.	.	.	.	.	.
=14	=14	=14	=14	=14	=14	=14	=14	=14	=14	=14	=14	=14	=14	=14	=14
*^	*	*	*	*	*	*	*	*	*	*	*	*	*	*	*
8B-/L	[4E-\	.	8ee-L 8g\	.	8G\	sta-	.	8B-\	sta-	.	2.r	.	.	2.r	.	.
8c/J	.	.	8ccJ 8a-\	.	8A-\	-ro-	.	8c\	-ro-	.	.	.	.	.	.	.
8e-/)	8E-\]	.	8b- 8g\)	.	4G\	-da-	.	4B-\	-da-	.	.	.	.	.	.	.
8r	8r	.	8r	.	.	.	.	.	.	.	.	.	.	.	.	.
8E-/L	(4AA-\	.	4c/	.	4E-\	-wna	.	8E-/L	-wna	.	.	.	.	.	.	.
8F/J	.	.	.	.	.	.	.	8F/J	.	.	.	.	.	.	.	.
*v	*v	*	*	*	*	*	*	*	*	*	*	*	*	*	*	*
!!LO:PB:g=original
=15	=15	=15	=15	=15	=15	=15	=15	=15	=15	=15	=15	=15	=15	=15	=15
8EE-/)	.	8B- 8G</	.	8E-\	Męż-	.	8G/	Męż-	.	4r	.	.	4r	.	.
8r	.	8r	.	8F\	-nych	.	8A-/	-nych	.	.	.	.	.	.	.
!	!	!	!	!	!	!	!	!	!LO:DY:a	!	!	!	!	!	!
[2BB- [2BBB-/	.	8r	.	[<2G\	dziel-	.	[<2B-\	dziel-	f	8r	.	.	8r	.	.
!	!	!	!	!	!	!	!	!	!	!LO:TX:a:i:t=marc.	!	!	!LO:TX:a:i:t=marc.	!	!
.	.	(8dd-XL 8f\	.	.	.	.	.	.	.	8f/	Ty	.	8dd-X\	Ty	.
.	.	8cc 8en\)	.	.	.	.	.	.	.	8en/	dziel-	.	8cc\	dziel-	.
.	.	8dd-J 8f\	.	.	.	.	.	.	.	8f/	-nych	.	8dd-\	-nych	.
=16	=16	=16	=16	=16	=16	=16	=16	=16	=16	=16	=16	=16	=16	=16	=16
*	*	*^	*	*	*	*	*	*	*	*	*	*	*	*	*
2.BB-_ 2.BBB-/_	.	8rgg	2cc 2en\	.	8G\]	.	.	8B-\]	.	.	2en/	serc,	.	2cc\	serc,	.
.	.	8bb- 8gg 8b-/	.	.	8G\	-nych	.	8B-\	-nych	.	.	.	.	.	.	.
.	.	4ccc 4aa- 4cc/	.	.	4A-\	serc	.	4c\	serc	.	.	.	.	.	.	.
.	.	4gg 4een 4g/	4r	.	4En\	ko-	.	4G\	ko-	.	4r	.	.	4r	.	.
*	*	*v	*v	*	*	*	*	*	*	*	*	*	*	*	*	*
=17	=17	=17	=17	=17	=17	=17	=17	=17	=17	=17	=17	=17	=17	=17	=17
4BB-] 4BBB-/]	.	4bb- 4gg 4b-/	.	4G\	-leb-	.	4B-\	-leb-	.	4r	.	.	4r	.	.
*clefG2	*	*	*	*	*	*	*	*	*	*	*	*	*	*	*
8r	.	2aa- [>2ff 2a-/	.	[<2F\	-ko,	.	[<2A-\	-ko,	.	8r	.	.	8r	.	.
8ccL 8e-'/	.	.	.	.	.	.	.	.	.	8e-X/	ty	.	8cc\	ty	.
8b- 8d'/	.	.	.	.	.	.	.	.	.	8d/	męż-	.	8b-\	męż-	.
8ccJ 8e-'/	.	.	.	.	.	.	.	.	.	8e-/	-nych	.	8cc\	-nych	.
=18	=18	=18	=18	=18	=18	=18	=18	=18	=18	=18	=18	=18	=18	=18	=18
[4b- [4d/	.	8aa-L 8ff] 8a-/	.	8F\]	.	.	8A-\]	.	.	4d/	serc	.	4b-\	serc,	.
.	.	8ggJ 8een 8g/	.	8En\	ty	.	8G\	ty	.	.	.	.	.	.	.
8b-]L 8d/]	.	[2aa- 2ff [2a-/	.	(<2F\	serc	.	[<2A-\	serc	.	8r	.	.	8r	.	.
8cc 8e-'/	.	.	.	.	.	.	.	.	.	8e-/	ty	.	8cc\	ty	.
8b- 8d'/	.	.	.	.	.	.	.	.	.	8d/	dziel-	.	8b-\	dziel-	.
8ccJ 8e-'/	.	.	.	.	.	.	.	.	.	8e-/	-nych	.	8cc\	-nych	.
!!LO:LB:g=original
=19	=19	=19	=19	=19	=19	=19	=19	=19	=19	=19	=19	=19	=19	=19	=19
*	*	*^	*	*	*	*	*	*	*	*	*	*	*	*	*
8b- 8d/	.	8aa-] 8ff 8a-/]	2ryy	.	8BB-/)	.	.	8A-\]	.	.	4.d/	serc,	.	4.b-\	serc,	.
8r	.	8r	.	.	8BB-/	ko-	.	8G\	ko-	.	.	.	.	.	.	.
4r	.	4r	.	.	4BB-/	-leb-	.	4F/	-leb-	.	.	.	.	.	.	.
.	.	.	.	.	.	.	.	.	.	.	8e-/	ko-	.	8cc\	ko-	.
*clefF4	*	*	*	*	*	*	*	*	*	*	*	*	*	*	*	*
4BB-\	.	(4B-/	[4A-\	.	4BB-/	-ko	.	4A-/	-ko	.	8d/	-leb-	.	8b-\	-leb-	.
.	.	.	.	.	.	.	.	.	.	.	8f/	-ko	.	8dd\	-ko	.
=20	=20	=20	=20	=20	=20	=20	=20	=20	=20	=20	=20	=20	=20	=20	=20	=20
4E-\	.	8.c/L	(4A-\]	.	4E-\	sła-	.	4A-/	sła-	.	4e-/	sła-	.	4cc\	sław-	.
.	.	16d/Jk	.	.	.	.	.	.	.	.	.	.	.	.	.	.
8EE-/	.	8e-/)	8G\)	.	4E-\	-wna,	.	4G/	-wna	.	4e-/	-wna!	.	4b-\	-na!	.
8r	.	8r	8ryy	.	.	.	.	.	.	.	.	.	.	.	.	.
!	!	!	!	!	!	!	!	!	!	!	!	!	!LO:DY:a	!	!	!
4r	.	8.b-/L	4ryy	.	4r	.	.	4r	.	.	8.b-\	Har-	mf	4r	.	.
.	.	16cc/Jk	.	.	.	.	.	.	.	.	16cc\	-tuj	.	.	.	.
=21	=21	=21	=21	=21	=21	=21	=21	=21	=21	=21	=21	=21	=21	=21	=21	=21
8r	.	[2.b-/	8r	.	8r	.	.	8r	.	.	[2.b-\	młódź	.	2.r	.	.
!	!	!	!	!LO:DY:a	!	!	!LO:HP:b	!	!	!LO:HP:b	!	!	!	!	!	!
(8E-\L	.	.	(>8c\L	<	8E-\	Na	<	8c\	Na	<	.	.	.	.	.	.
8G'\)	.	.	8e-'>\)	.	8G\L	twar-	.	8e-\L	twar-	.	.	.	.	.	.	.
8F'\	.	.	8d'>\	.	8F\	.	.	8d\	.	.	.	.	.	.	.	.
8E-'\	.	.	8c'>\	[	8E-\J	.	[	8c\J	.	[	.	.	.	.	.	.
8G'\J	.	.	8e-'>\J	.	8G\	-dy	.	8e-\	-dy	.	.	.	.	.	.	.
=22	=22	=22	=22	=22	=22	=22	=22	=22	=22	=22	=22	=22	=22	=22	=22	=22
8.F\L	.	2b-/]	8.d\L	.	8.F\	ży-	.	8.d\	ży-	.	2b-\]	.	.	2.r	.	.
16G\Jk	.	.	16e-\Jk	.	16G\	-cia	.	16e-\	-cia	.	.	.	.	.	.	.
4A-\	.	.	4f\	.	4A-\	znój	.	4f\	znój,	.	.	.	.	.	.	.
4r	.	8.b-/L	4r	.	4r	.	.	4r	.	.	8.b-\	Har-	.	.	.	.
.	.	16cc/Jk	.	.	.	.	.	.	.	.	16cc\	-tuj	.	.	.	.
!!LO:PB:g=original
=23	=23	=23	=23	=23	=23	=23	=23	=23	=23	=23	=23	=23	=23	=23	=23	=23
8r	.	[2.b-/	8r	.	8r	.	.	8r	.	.	[2.b-\	młodź	.	2.r	.	.
!	!	!	!	!	!	!	!LO:HP:b	!	!	!LO:HP:b	!	!	!	!	!	!
(8F\L	.	.	(>8d\L	.	8F\	Na	<	8d\	Na	<	.	.	.	.	.	.
8A-\)	.	.	8f'>\)	.	8A-\L	twar-	.	8f\L	twar-	.	.	.	.	.	.	.
8G'\	.	.	8e-'>\	.	8G\	.	.	8e-\	.	.	.	.	.	.	.	.
8F'\	.	.	8d'>\	.	8F\J	.	[	8d\J	.	[	.	.	.	.	.	.
8A-'\J	.	.	8f'>\J	.	8A-\	-dy	.	8f\	-dy	.	.	.	.	.	.	.
=24	=24	=24	=24	=24	=24	=24	=24	=24	=24	=24	=24	=24	=24	=24	=24	=24
8.G\L	.	2b-/]	8.e-\L	.	8.G\	ży-	.	8.e-\	ży-	.	2b-\]	.	.	4r	.	.
16A-\Jk	.	.	16f\Jk	.	16A-\	-cia	.	16f\	-cia	.	.	.	.	.	.	.
4B-\	.	.	4g\	.	4B-\	znój,	.	4g\	znój,	.	.	.	.	4r	.	.
!	!	!LO:N:vis=8	!	!	!	!	!	!	!	!	!	!	!	!LO:TX:t=P:problem=dynamics with extension lines	!	!LO:HP:b
4r	.	8.eee-L 8.ee-\	4ryy	.	4r	.	.	4r	.	.	4r	.	.	8.ee-\	Za-	<
.	.	16fffJk 16ff\	.	.	.	.	.	.	.	.	.	.	.	16ff\	-pał	.
=25	=25	=25	=25	=25	=25	=25	=25	=25	=25	=25	=25	=25	=25	=25	=25	=25
*^	*	*	*	*	*	*	*	*	*	*	*	*	*	*	*	*
8r	8ryy	.	8eee-L 8ee-\	4ryy	.	4r	.	.	8r	.	.	8r	.	.	2ee-\	budź,	.
!	!	!	!	!	!	!	!	!	!	!	!LO:HP:b	!	!	!LO:HP:b	!	!	!
((8B-/L	2E-\)	.	(8gg 8g\	.	.	.	.	.	8B-\	Mi-	<	8g\	Mi-	<	.	.	.
8d-X/))	.	.	8bb- 8b-\)	2ee-/	.	4E-\	Za-	.	8d-X\	-ło-	.	8b-\	-ło-	.	.	.	.
8c'/	.	.	8aa- 8a-'\	.	.	.	.	.	8c\	-ści	.	8a-\	-ści	.	.	.	.
8B-'/	.	.	8gg 8g'\	.	.	4E-\	-pał	.	8B-\	wą-	.	8g\	wą-	.	8ee-\	za-	.
8d-/J	8E-\	.	8bb-J 8ee- 8b-\	.	.	.	.	.	8d-\	-tek	.	8b-\	-tek	.	8ee-\	-pał	.
*	*	*	*v	*v	*	*	*	*	*	*	*	*	*	*	*	*	*
=26	=26	=26	=26	=26	=26	=26	=26	=26	=26	=26	=26	=26	=26	=26	=26	=26
!	!	!	!	!LO:DY:a	!	!	!LO:HP:b	!	!	!LO:HP:b	!	!	!LO:HP:b	!	!	!LO:HP:b
(4d-X/	[4A-\	.	[4aa- 4ff [4a-\	>	[4A-\	budź	>	(4d-X\	snuj,	>	[4a-\	snuj,	>	(4ff\	budź	>
8c/)	8A-\]	.	8aa-] 8ee- 8a-\]	]	8A-\]	.	]	8c\)	.	]	8a-\]	.	]	8ee-\)	.	]
8r	8r	.	8r	.	8r	.	.	8r	.	.	8r	.	.	8r	.	.
4r	4r	.	8.a-/L	p	4r	.	.	4r	.	.	4r	.	.	4r	.	.
.	.	.	16b-/Jk	.	.	.	.	.	.	.	.	.	.	.	.	.
*v	*v	*	*	*	*	*	*	*	*	*	*	*	*	*	*	*
!!LO:LB:g=original
=27	=27	=27	=27	=27	=27	=27	=27	=27	=27	=27	=27	=27	=27	=27	=27
*	*	*	*	*	*	*below	*	*	*below	*	*	*below	*	*	*below
2.r	.	[>4a-/	.	4r	.	.	4r	.	.	4r	.	.	4r	.	.
!	!	!	!	!	!	!LO:DY:rj	!	!	!LO:DY:rj	!	!	!LO:DY:rj	!	!	!LO:DY:rj
.	.	8a-/]	.	4.F\	Har-	p	(4c\	Har-	p	4.a-/	Har-	p	(4ee-\	Har-	p
.	.	8r	.	.	.	.	.	.	.	.	.	.	.	.	.
.	.	4r	.	.	.	.	8d\)	.	.	.	.	.	8dd\)	.	.
.	.	.	.	8F\	-tuj	.	8e-\	-tuj	.	8a-/	-tuj	.	8cc\	-tuj	.
=28	=28	=28	=28	=28	=28	=28	=28	=28	=28	=28	=28	=28	=28	=28	=28
2.r	.	2.r	.	8G\	młódź	.	8d\	młódź	.	8g/	młódź	.	8bn\	młódź	.
.	.	.	.	8G\	na	.	8Bn\	na	.	8f/	na	.	8dd\	na	.
.	.	.	.	4A-\	ży-	<	4c\	ży-	<	4e-/	ży-	<	4.cc\	ży-	<
.	.	.	.	4G-X\	-cia	.	4c\	-cia	.	4en/	-cia	.	.	.	.
.	.	.	.	.	.	.	.	.	.	.	.	.	8b-X\	-cia	.
=29	=29	=29	=29	=29	=29	=29	=29	=29	=29	=29	=29	=29	=29	=29	=29
2.r	.	4r	.	4F\	znój	[	4B-\	znój	[	4f/	znój.	[	4dd\	znój,	[
!	!	!LO:TX:a:i:t=Trombe	!	!	!	!	!	!	!	!	!	!	!	!	!
.	.	(4.ff 4.dd\	f	4r	.	.	4r	.	.	4.dd\	Po-	f	4.ff\	Po-	f
.	.	.	.	4r	.	.	4r	.	.	.	.	.	.	.	.
.	.	8dd 8b-\	.	.	.	.	.	.	.	8b-\	-zdro-	.	8dd\	-zdro-	.
=30	=30	=30	=30	=30	=30	=30	=30	=30	=30	=30	=30	=30	=30	=30	=30
4r	.	8ccL 8an\)	.	4r	.	.	4r	.	.	8an/	-wio-	.	8cc\	-wio-	.
.	.	8b-J 8g\	.	.	.	.	.	.	.	8g/	-na	.	8b-\	-na	.
!	!	!	!LO:DY:b=2	!	!	!	!	!	!	!	!	!	!	!	!
4.f 4.d\	.	[4dd [4b-\	f	4.d\	Po-	.	4.f\	Po-	.	[2b-\	bądź	.	[2dd\	bądź	.
!LO:TX:b:i:t=Cor.	!	!	!	!	!	!	!	!	!	!	!	!	!	!	!
.	.	.	.	.	.	.	.	.	.	.	.	.	.	.	.
.	.	8dd] 8b-\]	.	.	.	.	.	.	.	.	.	.	.	.	.
8d 8B-\	.	8r	.	8B-\	-zdro-	.	8d\	-zdro-	.	.	.	.	.	.	.
!!LO:PB:g=original
=31	=31	=31	=31	=31	=31	=31	=31	=31	=31	=31	=31	=31	=31	=31	=31
8cL 8An\	.	4r	.	8An\	-wio-	.	8c\	-wio-	.	4.b-\]	.	.	4.dd\]	.	.
8B-J 8G\	.	.	.	8G\	-na	.	8B-\	-na	.	.	.	.	.	.	.
[4d [4B-\	.	8r	.	[2B-\	bądź	.	[2d\	bądź	.	.	.	.	.	.	.
.	.	8ddL 8b-'\	.	.	.	.	.	.	.	8b-\	ty	.	8dd\	ty	.
8d] 8B-\]	.	8dd 8b-'\	.	.	.	.	.	.	.	8b-\	sta-	.	8dd\	sta-	.
8r	.	8ddJ 8b-'\	.	.	.	.	.	.	.	8b-\	-ro-	.	8dd\	-ro-	.
=32	=32	=32	=32	=32	=32	=32	=32	=32	=32	=32	=32	=32	=32	=32	=32
4r	.	(4ff 4dd\	.	4.B-\]	.	.	4.d\]	.	.	4dd\	-da-	.	4ff\	-da-	.
8r	.	8dd 8b-\)	.	.	.	.	.	.	.	8b-\	-wna	.	8dd\	-wna	.
8dL 8B-\	.	8r	.	8B-\	ty	.	8d\	ty	.	8r	.	.	8r	.	.
8d 8B-\	.	4r	.	8B-\	sta-	.	8d\	sta-	.	4r	.	.	4r	.	.
8dJ 8B-\	.	.	.	8B-\	-ro-	.	8d\	-ro-	.	.	.	.	.	.	.
=33	=33	=33	=33	=33	=33	=33	=33	=33	=33	=33	=33	=33	=33	=33	=33
4f 4d\	.	4r	.	4d\	-da-	.	4f\	-da-	.	2.r	.	.	2.r	.	.
8d 8B-\	.	4r	.	8B-\	-wna	.	8d\	-wna	.	.	.	.	.	.	.
8r	.	.	.	8r	.	.	8r	.	.	.	.	.	.	.	.
!	!	!	!LO:DY:rj	!	!	!	!	!	!	!	!	!	!	!	!
8.B-L 8.BB-/	.	8.bb-L 8.b-\	ff	4r	.	.	4r	.	.	.	.	.	.	.	.
16cJk 16C/	.	16cccJk 16cc\	.	.	.	.	.	.	.	.	.	.	.	.	.
=34	=34	=34	=34	=34	=34	=34	=34	=34	=34	=34	=34	=34	=34	=34	=34
4d 4D/	.	4ddd 4dd\	.	2.r	.	.	2.r	.	.	2.r	.	.	2.r	.	.
[2G [2GG/	.	[2gg [2g\	<[	.	.	.	.	.	.	.	.	.	.	.	.
!!LO:LB:g=original
=35	=35	=35	=35	=35	=35	=35	=35	=35	=35	=35	=35	=35	=35	=35	=35
*	*	*^	*	*	*	*	*	*	*	*	*	*	*	*	*
8G] 8GG/]	.	8gg] 8g\]	4ryy	.	4r	.	.	4r	.	.	4r	.	.	4r	.	.
8r	.	8r	.	.	.	.	.	.	.	.	.	.	.	.	.	.
2A-X 2AA-X/	.	4f 4d/	4B-\	.	4.A-X\	Mę-	f	(4B-\	Mę-	f	4.f/	Mę-	f	(4dd\	Mę-	f
.	.	4B-/	4B-\	.	.	.	.	8c\)	.	.	.	.	.	8cc\)	.	.
.	.	.	.	.	8A-\	-żnych	.	8d\	-żnych	.	8f/	-żnych	.	8b-\	-żnych	.
=36	=36	=36	=36	=36	=36	=36	=36	=36	=36	=36	=36	=36	=36	=36	=36	=36
8.GL 8.GG/	.	4e- 4B-/	4ryy	.	8G\	dziel-	.	8e-\	dziel-	.	8g\	dziel-	.	8b-\	dziel-	.
.	.	.	.	.	8G\	-nych	.	8e-\	-nych	.	8g\	-nych	.	8b-\	-nych	.
16FJk 16FF/	.	.	.	.	.	.	.	.	.	.	.	.	.	.	.	.
!	!	!LO:TX:a:i:t=Cor.	!	!	!	!	!	!	!	!	!	!	!	!	!	!
[2E- [2EE-/	.	4.B-/	[2G\	.	4.E-\	serc	.	4.B-\	serc	.	4.b-\	serc	.	4.gg\	serc	.
.	.	8Bn/	.	.	8E-\	ko-	.	8Bn\	ko-	.	8a-\	ko-	.	8ff\	ko-	.
=37	=37	=37	=37	=37	=37	=37	=37	=37	=37	=37	=37	=37	=37	=37	=37	=37
2E-] 2EE-/]	.	(8c/L	2G\]	.	8E-\	-leb-	.	8c\	-leb-	.	8g/	-leb-	.	8ee-\	-leb-	.
.	.	8d/)	.	.	8E-\	-ko	.	8f\	-ko	.	8g/	-ko	.	8dd\	-ko	.
.	.	8e-'/	.	.	4E-\	sła-	.	8e-\L	sła-	.	4g/	sła-	.	4cc\	sła-	.
.	.	8f'/	.	.	.	.	.	8d\J	.	.	.	.	.	.	.	.
4En 4EEn/	.	8g'/	4c\	.	4En\	-wna	.	8c\L	-wna	.	4g/	-wna	.	4g/	-wna	.
.	.	8an'/J	.	.	.	.	.	8B-X\J	.	.	.	.	.	.	.	.
=38	=38	=38	=38	=38	=38	=38	=38	=38	=38	=38	=38	=38	=38	=38	=38	=38
*	*	*	*^	*	*	*	*	*	*	*	*	*	*	*	*	*
[2.F [2.FF/	.	4raa	[>4b-/	[<4d\	.	8F\	Po-	.	8d\	Po-	.	8f/	Po-	.	8b-\	Po-	.
.	.	.	.	.	.	8F\	-zdro-	.	8B-\	-zdro-	.	8f/	-zdro-	.	8dd\	-zdro-	.
.	.	4raa	8b-/L]	8d\]	.	4.F\	-wio-	.	4.d\	-wio-	.	4.b-\	-wio-	.	4.ff\	-wio-	.
.	.	.	8an'/	8rB	.	.	.	.	.	.	.	.	.	.	.	.	.
!	!	!LO:TX:t=P:problem=brak początku łuku	!	!	!	!	!	!	!	!	!	!	!	!	!	!	!
.	.	(4ddd 4bb-'/	8g'/	4rA	.	.	.	.	.	.	.	.	.	.	.	.	.
.	.	.	8f'/J	.	.	8F\	-na	.	8B-\	-na	.	8f/	-na	.	8dd\	-na	.
*	*	*	*v	*v	*	*	*	*	*	*	*	*	*	*	*	*	*
!!LO:PB:g=original
=39	=39	=39	=39	=39	=39	=39	=39	=39	=39	=39	=39	=39	=39	=39	=39	=39
!LO:TX:t=P:porblem:brak zakończenia ligatury	!	!	!	!	!	!	!	!	!	!	!	!	!	!	!	!
2.F_ 2.FF/_	.	4fff 4ddd'/)	8f'>\L	.	8F\	bądź	.	8d\	bądź	.	8f/	bądź	.	8b-\	bądź	.
.	.	.	8B-'>\	.	8F\	ko-	.	8B-\	ko-	.	8f/	ko-	.	8dd\	ko-	.
.	.	4rgg	8e-'>\	.	4.F\	-leb-	.	4.e-\	-leb-	.	4.b-\	-leb-	.	4.gg\	-leb-	.
.	.	.	8d'>\	.	.	.	.	.	.	.	.	.	.	.	.	.
.	.	(4bb- 4gg'/	8c'>\	.	.	.	.	.	.	.	.	.	.	.	.	.
.	.	.	8B-'>\J	.	8F\	-ko	.	8B-\	-ko	.	8f/	-ko	.	8dd\	-ko	.
=40	=40	=40	=40	=40	=40	=40	=40	=40	=40	=40	=40	=40	=40	=40	=40	=40
4F] 4FF/]	.	4ddd 4bb-'/)	4f\	.	8F\	sław-	.	8d\	sław-	.	8b-\	sław-	.	8ff\	sław-	.
.	.	.	.	.	8F\	-na	.	8B-\	-na	.	8f/	-na	.	8dd\	-na	.
4r	.	4r	2ryy	.	4.F\	po-	.	(8g\L	po-	.	4.b-\	po-	.	(4b-\	po-	.
.	.	.	.	.	.	.	.	8f\	.	.	.	.	.	.	.	.
4r	.	4r	.	.	.	.	.	8e-\J)	.	.	.	.	.	8cc\)	.	.
.	.	.	.	.	8F\	-zdro-	.	8d\	-zdro-	.	8b-\	-zdro-	.	8dd\	-zdro-	.
*	*	*v	*v	*	*	*	*	*	*	*	*	*	*	*	*	*
=41	=41	=41	=41	=41	=41	=41	=41	=41	=41	=41	=41	=41	=41	=41	=41
4r	.	4r	>	2F\	-wio-	>	(4c\	-wio-	>	(8b-\L	-wio-	>	(4ee-\	-wio-	>
.	.	.	.	.	.	.	.	.	.	8g\J	.	.	.	.	.
(4F 4FF'/	.	(>4f'>/	.	.	.	.	4f\)	.	.	4an\)	.	.	4dd\)	.	.
4F 4FF'/)	.	4an 4f 4e-'>/)	]	4F\	-na	]	4e-\	-na	]	4a\	-na	]	4cc\	-na	]
=42	=42	=42	=42	=42	=42	=42	=42	=42	=42	=42	=42	=42	=42	=42	=42
!	!	!	!	!	!	!	!	!	!LO:DY:a	!	!	!LO:DY:a	!	!	!
4BB- 4BBB-/	.	4b- 4f 4d/	.	2B-\	bądź	.	4d\	bądź,	p	4f/	bądź,	p	2b-\	bądź	.
!	!	!	!	!	!	!	!LO:N:vis=8	!	!	!	!	!	!	!	!
2r	.	4r	.	.	.	.	8.B-\	har-	.	8.d/	har-	.	.	.	.
.	.	.	.	.	.	.	16c\	-tuj	.	16e-/	-tuj	.	.	.	.
!	!	!	!	!	!	!LO:DY:a	!	!	!	!	!	!	!	!	!LO:DY:a
.	.	4r	.	8.B-\	har-	p	[<4d\	młódź	.	[4f/	młódź	.	8.b-\	har-	p
.	.	.	.	16c\	-tuj	.	.	.	.	.	.	.	16cc\	-tuj	.
!!LO:LB:g=original
=43	=43	=43	=43	=43	=43	=43	=43	=43	=43	=43	=43	=43	=43	=43	=43
4r	.	4r	.	2B-\	młódź	.	4d\]	.	.	4f/]	.	.	2b-\	młódź	.
8.e-L 8.c\	.	8.ee-L 8.cc\	.	.	.	.	8.c\	za-	.	8.e-/	za-	.	.	.	.
16fJk 16d\	.	16ffJk 16dd\	.	.	.	.	16d\	-pał	.	16f/	-pał	.	.	.	.
[4g [4e-\	.	[4gg [4ee-\	.	8.B-\	za-	.	[4e-\	budź	.	[4g/	budź	.	8.b-\L	za-	.
.	.	.	.	16c\	-pał	.	.	.	.	.	.	.	16cc\Jk	-pał	.
=44	=44	=44	=44	=44	=44	=44	=44	=44	=44	=44	=44	=44	=44	=44	=44
8g] 8e-\]	.	8gg] 8ee-\]	.	[2.B-\	budź	.	8e-\]	.	.	8g/]	.	.	[2.b-\	budź	.
8r	.	8r	.	.	.	.	8e-\	mi-	.	8g/	mi-	.	.	.	.
4r	.	4r	.	.	.	.	8d\	-ło-	.	8f/	-ło-	.	.	.	.
.	.	.	.	.	.	.	8c\	-ści	.	8e-/	-ści	.	.	.	.
4r	.	4r	.	.	.	.	8B-\	wą-	.	8d/	wą-	.	.	.	.
.	.	.	.	.	.	.	8c\	-tek	.	8e-/	-tek	.	.	.	.
=45	=45	=45	=45	=45	=45	=45	=45	=45	=45	=45	=45	=45	=45	=45	=45
4r	.	8r	.	2.B-\_	.	>	[2.d\	snuj	>	[>2.f/	snuj	>	2.b-\_	.	>
.	.	(8b-L 8f 8d/	.	.	.	.	.	.	.	.	.	.	.	.	.
!	!	!	!LO:HP:t=dimin.	!	!	!	!	!	!	!	!	!	!	!	!
4r	.	8dd 8b- 8f/)	>	.	.	.	.	.	.	.	.	.	.	.	.
.	.	8b- 8f 8d'/	.	.	.	.	.	.	.	.	.	.	.	.	.
4B- 4BB-\	.	8dd 8b- 8f'/	.	.	.	.	.	.	.	.	.	.	.	.	.
.	.	8ffJ 8dd 8b-'/	.	.	.	.	.	.	.	.	.	.	.	.	.
=46	=46	=46	=46	=46	=46	=46	=46	=46	=46	=46	=46	=46	=46	=46	=46
*	*	*^	*	*	*	*	*	*	*	*	*	*	*	*	*
2BB- 2BBB-/	.	2bb- 2ff 2dd\	2ryy	p	4B-\_	.	]	4d\_	.	]	4f/_	.	]	4b-\_	.	]
.	.	.	.	.	8B-\]	.	.	8d\]	.	.	8f/]	.	.	8b-\]	.	.
.	.	.	.	.	8r	.	.	8r	.	.	8r	.	.	8r	.	.
!	!	!LO:TX:a:i:t=Trombe	!	!LO:DY:a	!	!	!	!	!	!	!	!	!	!	!	!
4r	.	8.b-/L	4r	p	4r	.	.	4r	.	.	4r	.	.	4r	.	.
.	.	16cc-X/Jk	.	.	.	.	.	.	.	.	.	.	.	.	.	.
!!LO:PB:g=original
=47	=47	=47	=47	=47	=47	=47	=47	=47	=47	=47	=47	=47	=47	=47	=47	=47
!LO:TX:b:i:t=Tromboni e Fag.	!	!	!	!	!	!	!	!	!	!	!	!	!	!	!	!
4r	.	[2.b-/	4r	.	2.r	.	.	2.r	.	.	2.r	.	.	2.r	.	.
!	!	!LO:TX:b:i:t=Cor.	!	!	!	!	!	!	!	!	!	!	!	!	!	!
(4B- 4BB-\	.	.	4r	.	.	.	.	.	.	.	.	.	.	.	.	.
4A-X 4AA-X\	.	.	8.f\L	.	.	.	.	.	.	.	.	.	.	.	.	.
.	.	.	16g-X\Jk	.	.	.	.	.	.	.	.	.	.	.	.	.
=48	=48	=48	=48	=48	=48	=48	=48	=48	=48	=48	=48	=48	=48	=48	=48	=48
[2.c-X [2.C-X\)	.	4b-/]	2e-\	.	2.r	.	.	2.r	.	.	2.r	.	.	2.r	.	.
.	.	4gn/	.	.	.	.	.	.	.	.	.	.	.	.	.	.
.	.	8.ee-/L	[4a-\	.	.	.	.	.	.	.	.	.	.	.	.	.
.	.	16ff/Jk	.	.	.	.	.	.	.	.	.	.	.	.	.	.
=49	=49	=49	=49	=49	=49	=49	=49	=49	=49	=49	=49	=49	=49	=49	=49	=49
(4c-] 4C-\]	.	[2.dd-X/	4a-\]	.	2.r	.	.	2.r	.	.	2.r	.	.	2.r	.	.
[2B- [2BB-\	.	.	4g-X\	.	.	.	.	.	.	.	.	.	.	.	.	.
.	.	.	8.f\L	.	.	.	.	.	.	.	.	.	.	.	.	.
.	.	.	16g-\Jk	.	.	.	.	.	.	.	.	.	.	.	.	.
*	*	*v	*v	*	*	*	*	*	*	*	*	*	*	*	*	*
=50	=50	=50	=50	=50	=50	=50	=50	=50	=50	=50	=50	=50	=50	=50	=50
4B-] 4BB-\]	.	(2dd-] (2e-/	.	2.r	.	.	2.r	.	.	2.r	.	.	2.r	.	.
4A- 4AA-\)	.	.	.	.	.	.	.	.	.	.	.	.	.	.	.
4D-X 4DD-X/	.	4cc-X 4f/	.	.	.	.	.	.	.	.	.	.	.	.	.
=51	=51	=51	=51	=51	=51	=51	=51	=51	=51	=51	=51	=51	=51	=51	=51
*	*	*^	*	*	*	*	*	*	*	*	*	*	*	*	*
4G-X 4GG-X/	.	4b-/))	4g-X\	.	2.r	.	.	2.r	.	.	4r	.	.	2.r	.	.
!	!	!LO:TX:a:i:t=Cl.	!	!	!	!	!	!	!	!	!	!	!LO:DY:a	!	!	!
4r	.	(>4g-/	2ryy	.	.	.	.	.	.	.	4g-X/	Wie-	p	.	.	.
4r	.	4a-/)	.	.	.	.	.	.	.	.	4a-/	-dzę	.	.	.	.
*	*	*v	*v	*	*	*	*	*	*	*	*	*	*	*	*	*
!!LO:LB:g=original
=52	=52	=52	=52	=52	=52	=52	=52	=52	=52	=52	=52	=52	=52	=52	=52
2.r	.	(>2e-/	.	2.r	.	.	2.r	.	.	2e-/	krzew,	.	2.r	.	.
.	.	4f/)	.	.	.	.	.	.	.	4f/	oj-	.	.	.	.
=53	=53	=53	=53	=53	=53	=53	=53	=53	=53	=53	=53	=53	=53	=53	=53
*	*	*^	*	*	*	*	*	*	*	*	*	*	*	*	*
2.r	.	4r	8g-X\L	.	2.r	.	.	2.r	.	.	8g-X/	-czyz-	.	4r	.	.
.	.	.	8a-\J	.	.	.	.	.	.	.	8a-/	-nie	.	.	.	.
!	!	!LO:TX:a:i:t=Ob.	!	!	!	!	!	!	!	!	!	!	!	!	!	!
.	.	(4dd-X/	4.b-\	.	.	.	.	.	.	.	4.b-\	wier-	.	4dd-X\	Wie-	p
.	.	4ee-/	.	.	.	.	.	.	.	.	.	.	.	4ee-\	-dzę	.
.	.	.	8a-\	.	.	.	.	.	.	.	8a-/	-nie	.	.	.	.
=54	=54	=54	=54	=54	=54	=54	=54	=54	=54	=54	=54	=54	=54	=54	=54	=54
2.r	.	2b-/	4g-X\	.	2.r	.	.	2.r	.	.	(4g-X/	służ	.	2b-\	krzew,	.
.	.	.	4f\	.	.	.	.	.	.	.	4f/)	.	.	.	.	.
.	.	4cc/	4e-\	.	.	.	.	.	.	.	4e-/	oj-	.	4cc\	oj-	.
=55	=55	=55	=55	=55	=55	=55	=55	=55	=55	=55	=55	=55	=55	=55	=55	=55
2.r	.	8dd-X/L	4b-\	.	2.r	.	.	2.r	.	.	(4b-\	-czy-	<	8dd-X\	-czyz-	<
.	.	8ee-/J	.	.	.	.	.	.	.	.	.	.	.	8ee-\	-nie	.
.	.	4.ff/	4an\	.	.	.	.	.	.	.	4an\)	.	.	4.ff\	wier-	.
.	.	.	4cc\	.	.	.	.	.	.	.	4ccn\	-znie	[[	.	.	[[
.	.	8ee-/	.	.	.	.	.	.	.	.	.	.	.	8ee-\	-nie	.
=56	=56	=56	=56	=56	=56	=56	=56	=56	=56	=56	=56	=56	=56	=56	=56	=56
!	!	!	!	!	!	!	!LO:DY:a	!	!	!	!	!	!LO:HP:t=cresc. un poco	!	!	!LO:HP:t=cresc. un poco
4r	.	2dd-X/	4b-\	.	4r	.	mf	2.r	.	.	(4b-\	wier-	<	2dd-X\	służ	<
!LO:TX:b:i:t=Fag. e Cor.	!	!	!	!	!	!	!	!	!	!	!	!	!	!	!	!
4G-X\	.	.	4e-\	.	4G-X\	Wie-	.	.	.	.	4e-/)	.	.	.	.	.
4A-\	.	4cc-X/)	4f\	.	4A-\	-dzę	.	.	.	.	4f/	-nie	.	4cc-X\	oj-	.
!!LO:PB:g=original
=57	=57	=57	=57	=57	=57	=57	=57	=57	=57	=57	=57	=57	=57	=57	=57	=57
2E-\	.	4b-/	2g-X\	.	2E-\	krzew,	.	2.r	.	.	2g-X/	służ,	.	(4b-\	-czy-	.
.	.	4ee-/	.	.	.	.	.	.	.	.	.	.	.	4ee-\)	.	.
4F\	.	8dd-X/L	4a-\	.	4F\	oj-	.	.	.	.	(>4a-/	wie-	.	8dd-X\L	-znie	.
.	.	8cc-X/J	.	.	.	.	.	.	.	.	.	.	.	8cc-X\J	.	.
=58	=58	=58	=58	=58	=58	=58	=58	=58	=58	=58	=58	=58	=58	=58	=58	=58
*^	*	*	*	*	*	*	*	*	*	*	*	*	*	*	*	*
4r	8G-X\L	.	2b-/	8b-\L	.	8G-X\	-czyz-	.	4r	.	.	8b-/)	.	.	2b-\	wier-	.
.	8A-\J	.	.	8a-\J	.	8A-\	-nie	.	.	.	.	8a-/	-dzę	.	.	.	.
!	!	!	!	!	!	!	!	!	!	!	!LO:DY:a	!	!	!	!	!	!
4d-X/	4.B-\	.	.	4g-X\	.	4.B-\	wier-	.	4d-X\	Wie-	mf	4g-X/	krzew!	.	.	.	.
4e-/	.	.	4ccn/	4r	.	.	.	.	4e-\	-dzę	.	4r	.	.	4ccn\	-nie	.
.	8A-\	.	.	.	.	8A-\	-nie	.	.	.	.	.	.	.	.	.	.
=59	=59	=59	=59	=59	=59	=59	=59	=59	=59	=59	=59	=59	=59	=59	=59	=59	=59
2B-/	2G-X\	.	2dd-X/	4r	.	2G-X\	służ,	.	2B-\	krzew,	.	4r	.	.	2dd-X\	służ	.
.	.	.	.	4b-\	.	.	.	.	.	.	.	4b-\	oj-	.	.	.	.
4cn/	8F\L	.	4ee-/	8a-\L	.	8F\L	oj-	.	4cn\	oj-	.	8a-\	-czyz-	.	(4ee-\	wie-	.
.	8E-\J	.	.	8g-X\J	.	8E-\J	.	.	.	.	.	8g-X\	-nie	.	.	.	.
=60	=60	=60	=60	=60	=60	=60	=60	=60	=60	=60	=60	=60	=60	=60	=60	=60	=60
8d-X/L	2D-X\	.	4ff/	4f\	.	2D-X\	-czy-	.	8d-X\	-czyz-	.	(>4f/	wier-	.	4ff\	.	.
8e-/J	.	.	.	.	.	.	.	.	8e-\	-nie	.	.	.	.	.	.	.
4.f/	.	.	4b-/	4gn\	.	.	.	.	4.f\	wier-	.	4gn/)	.	.	4b-\)	.	.
.	4Cn\	.	4ccn/	4an\	.	4C\	-znie	.	.	.	.	4an/	-nie	.	4cc\	-dzę	.
8e-/	.	.	.	.	.	.	.	.	8e-\	-nie	.	.	.	.	.	.	.
=61	=61	=61	=61	=61	=61	=61	=61	=61	=61	=61	=61	=61	=61	=61	=61	=61	=61
4d-X/	4BB-\	.	4dd-X/	4b-\	.	4BB-\	służ	.	4d-X\	służ,	.	4b-\	służ	.	4dd-X\	krzew	.
!	!	!	!LO:TX:a:i:t=marc.	!	!	!	!	!	!	!	!	!	!	!	!	!	!
4r	2ryy	.	8r	2ryy	.	4r	.	.	4r	.	.	4r	.	.	4b-\	Niech	.
.	.	.	(8g-X^>/L	.	.	.	.	.	.	.	.	.	.	.	.	.	.
4r	.	.	8f/)	.	.	4r	.	.	4r	.	.	4r	.	.	4cc\	cię	.
.	.	.	8e-/J	.	.	.	.	.	.	.	.	.	.	.	.	.	.
*v	*v	*	*	*	*	*	*	*	*	*	*	*	*	*	*	*	*
*	*	*v	*v	*	*	*	*	*	*	*	*	*	*	*	*	*
!!LO:LB:g=original
=62	=62	=62	=62	=62	=62	=62	=62	=62	=62	=62	=62	=62	=62	=62	=62
4r	.	8d-X'/L	.	2.r	.	.	4r	.	.	2.r	.	.	(>4f/	strze-	.
.	.	8c'/J	.	.	.	.	.	.	.	.	.	.	.	.	.
4r	.	8B-'/	.	.	.	.	8r	.	.	.	.	.	4g/)	.	.
.	.	8r	.	.	.	.	8e-'\	Niech	.	.	.	.	.	.	.
!LO:TX:b:i:t=Cl.	!	!	!	!	!	!	!	!	!	!	!	!	!	!	!
(4f\	.	(4cccn (4ee-\	p	.	.	.	8d-X'\	strze-	.	.	.	.	4an/	-że	.
!	!	!LO:TX:a:i:t=Fl.	!	!	!	!	!	!	!	!	!	!	!	!	!
.	.	.	.	.	.	.	8c'\	-że	.	.	.	.	.	.	.
=63	=63	=63	=63	=63	=63	=63	=63	=63	=63	=63	=63	=63	=63	=63	=63
4B-\)	.	4bb- 4dd-X\))	.	2.r	.	.	4B-\	Bóg	.	4r	.	.	4b-\	Bóg,	.
8r	.	4r	.	.	.	.	4r	.	.	4f/	Niech	.	4r	.	.
!LO:TX:b:i:t=marc.	!	!	!	!	!	!	!	!	!	!	!	!	!	!	!
(8c-X^\L	.	.	.	.	.	.	.	.	.	.	.	.	.	.	.
8B-\)	.	4r	.	.	.	.	4r	.	.	4g-X/	cię	.	4r	.	.
8A-'\J	.	.	.	.	.	.	.	.	.	.	.	.	.	.	.
=64	=64	=64	=64	=64	=64	=64	=64	=64	=64	=64	=64	=64	=64	=64	=64
*	*	*^	*	*	*	*	*	*	*	*	*	*	*	*	*
8G-X'\L	.	4r	4ryy	.	4r	.	.	2.r	.	.	(4d-X/	strze-	.	2.r	.	.
8F'\J	.	.	.	.	.	.	.	.	.	.	.	.	.	.	.	.
8E-'\	.	4r	4ryy	.	8r	.	.	.	.	.	4c/)	.	.	.	.	.
8r	.	.	.	.	8A-'\	Niech	.	.	.	.	.	.	.	.	.	.
!LO:TX:b:i:t=Cor.	!	!LO:TX:a::rj:i:t=Ob.	!	!LO:DY:rj	!	!	!	!	!	!	!	!	!	!	!	!
(4B-\	.	(4ddn/	(4a-\	p	8G-X'\	strze-	.	.	.	.	4dn/	-że	.	.	.	.
.	.	.	.	.	8F'\	-że	.	.	.	.	.	.	.	.	.	.
=65	=65	=65	=65	=65	=65	=65	=65	=65	=65	=65	=65	=65	=65	=65	=65	=65
4E-\)	.	4ee-/)	4g-X\)	.	4E-\	Bóg	.	2.r	.	.	4e-/	Bóg	.	4r	.	.
8r	.	4r	2ryy	.	2r	.	.	.	.	.	2r	.	.	4ee-\	Niech	.
(8d-X^\L	.	.	.	.	.	.	.	.	.	.	.	.	.	.	.	.
8c-X\)	.	4r	.	.	.	.	.	.	.	.	.	.	.	4ff-X\	cię	.
8B-\J	.	.	.	.	.	.	.	.	.	.	.	.	.	.	.	.
!!LO:PB:g=original
=66	=66	=66	=66	=66	=66	=66	=66	=66	=66	=66	=66	=66	=66	=66	=66	=66
8A-'\L	.	4r	2ryy	.	2.r	.	.	2.r	.	.	4r	.	.	2cc-X\	strze-	.
8G-X'\	.	.	.	.	.	.	.	.	.	.	.	.	.	.	.	.
8F-X'\J	.	4r	.	.	.	.	.	.	.	.	8r	.	.	.	.	.
!LO:TX:b:i:t=Fag.	!	!	!	!	!	!	!	!	!	!	!	!	!	!	!	!
8r	.	.	.	.	.	.	.	.	.	.	8a-'/	Niech	.	.	.	.
!	!	!LO:TX:a:i:t=Cl.	!	!	!	!	!	!	!	!	!	!	!	!	!	!
(4B-\	.	(4dd-X/	[4g-X\	p	.	.	.	.	.	.	8g-X'/	strze-	.	4dd-X\	-że,	.
.	.	.	.	.	.	.	.	.	.	.	8f-X'/	-że	.	.	.	.
=67	=67	=67	=67	=67	=67	=67	=67	=67	=67	=67	=67	=67	=67	=67	=67	=67
4c-X\)	.	4ee-/)	4g-\]	.	2.r	.	.	4r	.	.	4e-/	Bóg,	.	4ee-\	.	.
8r	.	4r	2ryy	.	.	.	.	4e-\	Niech	.	4r	.	.	4r	.	.
!LO:TX:b:i:t=marc.	!	!	!	!	!	!	!	!	!	!	!	!	!	!	!	!
(8d-X^\L	.	.	.	.	.	.	.	.	.	.	.	.	.	.	.	.
8c-X\)	.	4r	.	.	.	.	.	4f-X\	cię	.	4r	.	.	4r	.	.
8B-\J	.	.	.	.	.	.	.	.	.	.	.	.	.	.	.	.
=68	=68	=68	=68	=68	=68	=68	=68	=68	=68	=68	=68	=68	=68	=68	=68	=68
8A-'\L	.	4r	2ryy	.	4r	.	.	2c-X\	strze-	.	4r	.	.	2.r	.	.
8G-X'\J	.	.	.	.	.	.	.	.	.	.	.	.	.	.	.	.
8F-X\	.	4r	.	.	8r	.	.	.	.	.	8r	.	.	.	.	.
8r	.	.	.	.	8A-'\	Niech	.	.	.	.	8cc-X'\	Niech	.	.	.	.
!LO:TX:b:i:t=Cor.	!	!LO:TX:a:rj:i:t=Tr.	!LO:DY:rj	!	!	!	!	!	!	!	!	!	!	!	!	!
(4g-X\	.	(4dd-X/	(4b-\	p	8G-X'\	strze-	.	4d-X\	-że	.	8b-'\	strze-	.	.	.	.
.	.	.	.	.	8F-X'\	-że	.	.	.	.	8a-'\	-że	.	.	.	.
=69	=69	=69	=69	=69	=69	=69	=69	=69	=69	=69	=69	=69	=69	=69	=69	=69
4c-X\)	.	4ee-/)	4cc-X\)	.	4E-\	Bóg,	.	4e-\	Bóg	.	4g-X/	Bóg	.	4r	.	.
!	!	!	!	!	!	!	!	!	!	!LO:DY:rj	!	!	!LO:DY:rj	!	!	!LO:DY:rj
2ryy	.	4r	2ryy	.	4c-X\	Niech	.	4e-\	Niech	p	4g-X/	Niech	p	4cc-X\	Niech	p
.	.	4r	.	.	4c-\	cię	.	4f-X\	cię	.	4a-/	cię	.	4dd-X\	cię	.
*	*	*v	*v	*	*	*	*	*	*	*	*	*	*	*	*	*
!!LO:LB:g=original
=70	=70	=70	=70	=70	=70	=70	=70	=70	=70	=70	=70	=70	=70	=70	=70
2.r	.	2.r	.	(4c-X\	strze-	.	2d-X\	strze-	.	2f-X/	strze-	.	2a-/	Bóg	.
.	.	.	.	8B-\L	.	.	.	.	.	.	.	.	.	.	.
.	.	.	.	8A-\J)	.	.	.	.	.	.	.	.	.	.	.
.	.	.	.	4G-X\	-że	.	4d-\	-że	.	4f-/	-że	.	4b-\	od	.
=71	=71	=71	=71	=71	=71	=71	=71	=71	=71	=71	=71	=71	=71	=71	=71
!	!	!	!	!	!	!	!	!	!	!	!	!	!	!	!LO:HP:a
2.r	.	2.r	.	2A-\	Bóg	<	2c-X\	Bóg	<	(>4f-X/	Bóg	<	4.cc-X\	gro-	<
.	.	.	.	.	.	.	.	.	.	4e-/)	.	.	.	.	.
.	.	.	.	.	.	.	.	.	.	.	.	.	8dd-X\	-źnych	.
.	.	.	.	4A-\	od	[	4c-\	od	[	4cc-X\	od	[	8ee-\	strze-	[
.	.	.	.	.	.	.	.	.	.	.	.	.	8ff-X\	-że	.
=72	=72	=72	=72	=72	=72	=72	=72	=72	=72	=72	=72	=72	=72	=72	=72
*	*	*	*^	*	*	*	*	*	*	*	*	*	*	*	*
!	!	!	!	!	!	!	!	!	!	!	!	!	!	!	!	!LO:DY:a:rj
!	!	!	!	!	!	!	!LO:DY:rj	!	!	!LO:DY:rj	!	!	!LO:DY:rj	!	!	!LO:HP:a
4r	.	4r	.	.	[2.G-X\	burz.	f >	[2.d-X\	burz.	f >	[2.b-\	burz.	f >	[2.gg-X\	burz.	f >
!	!	!	!	!LO:DY:b=2	!	!	!	!	!	!	!	!	!	!	!	!
[2G-X [2GG-X/	.	[>2g-X/	ff	ff	.	.	.	.	.	.	.	.	.	.	.	.
=73	=73	=73	=73	=73	=73	=73	=73	=73	=73	=73	=73	=73	=73	=73	=73	=73
!	!	!	!	!LO:HP:b=2	!	!	!	!	!	!	!	!	!	!	!	!
4G-] 4GG-/]	.	4g-/]	>	>	4G-\]	.	]	4d-\]	.	]	4b-\]	.	]	4gg-\]	.	]
4F#X 4FF#X/	.	4f#X/	.	.	2r	.	.	2r	.	.	2r	.	.	2r	.	.
4G#X 4GG#X/	.	4g#X/	]]	]]	.	.	.	.	.	.	.	.	.	.	.	.
*	*	*	*v	*v	*	*	*	*	*	*	*	*	*	*	*	*
!!LO:PB:g=original
=74||	=74||	=74||	=74||	=74||	=74||	=74||	=74||	=74||	=74||	=74||	=74||	=74||	=74||	=74||	=74||
*k[]	*	*k[]	*	*k[]	*	*	*k[]	*	*	*k[]	*	*	*k[]	*	*
*^	*	*^	*	*	*	*	*	*	*	*	*	*	*	*	*
4A 4AA\	4ryy	.	4r	4a\	.	2.r	.	.	2.r	.	.	2.r	.	.	2.r	.	.
4f#X/	[2A\	.	(4ddd 4dd\	2aa/	p	.	.	.	.	.	.	.	.	.	.	.	.
!	!	!	!LO:TX:b:i:t=dolce	!	!	!	!	!	!	!	!	!	!	!	!	!	!
[4g/	.	.	4eee 4ee\	.	.	.	.	.	.	.	.	.	.	.	.	.	.
=75	=75	=75	=75	=75	=75	=75	=75	=75	=75	=75	=75	=75	=75	=75	=75	=75	=75
4g/]	2.A\_	.	2bb 2b\	2aa/	.	2.r	.	.	2.r	.	.	2.r	.	.	2.r	.	.
8f#X/L	.	.	.	.	.	.	.	.	.	.	.	.	.	.	.	.	.
8e/J	.	.	.	.	.	.	.	.	.	.	.	.	.	.	.	.	.
4g/	.	.	4ccc#X 4aa 4cc#X\)	4ryy	.	.	.	.	.	.	.	.	.	.	.	.	.
=76	=76	=76	=76	=76	=76	=76	=76	=76	=76	=76	=76	=76	=76	=76	=76	=76	=76
(4f#X/	2.A\_	.	(4.ddd 4.dd\	2aa/	.	2.r	.	.	2.r	.	.	2.r	.	.	2.r	.	.
4d/	.	.	.	.	.	.	.	.	.	.	.	.	.	.	.	.	.
.	.	.	8eee 8ee\	.	.	.	.	.	.	.	.	.	.	.	.	.	.
!	!	!	!LO:SIC:v:n=2:s=8ff#\	!	!	!	!	!	!	!	!	!	!	!	!	!	!
4B/	.	.	8fff#XL 8ff\	4ddd/	.	.	.	.	.	.	.	.	.	.	.	.	.
.	.	.	8ggg#XJ 8gg#X\	.	.	.	.	.	.	.	.	.	.	.	.	.	.
*	*	*	*v	*v	*	*	*	*	*	*	*	*	*	*	*	*	*
=77	=77	=77	=77	=77	=77	=77	=77	=77	=77	=77	=77	=77	=77	=77	=77	=77
[2.e/)	2.A\_	.	[2.aaa [<2.ccc#X 2.aa\)	.	2.r	.	.	2.r	.	.	2.r	.	.	2.r	.	.
=78	=78	=78	=78	=78	=78	=78	=78	=78	=78	=78	=78	=78	=78	=78	=78	=78
4e/]	4A\]	.	4aaa] 4ccc#] 4aa\	.	2.r	.	.	2.r	.	.	4r	.	.	2.r	.	.
4r	2ryy	.	4r	.	.	.	.	.	.	.	4r	.	.	.	.	.
!	!	!	!LO:TX:a:i:t=Tromba	!	!	!	!	!	!	!	!	!	!LO:DY:a	!	!	!
4r	.	.	8.a/L	mf	.	.	.	.	.	.	8.a/	Świę-	mf	.	.	.
.	.	.	16b/Jk	.	.	.	.	.	.	.	16b/	-ty	.	.	.	.
*v	*v	*	*	*	*	*	*	*	*	*	*	*	*	*	*	*
!!LO:LB:g=original
=79	=79	=79	=79	=79	=79	=79	=79	=79	=79	=79	=79	=79	=79	=79	=79
*	*	*^	*	*	*	*	*	*	*	*	*	*	*	*	*
8r	.	[2.a/	8r	.	8r	.	.	8r	.	.	[>2.a/	żar	.	2.r	.	.
(8F#XL 8FF#X/	.	.	(>8d\L	.	8F#X\	Niech	.	8d\	Niech	.	.	.	.	.	.	.
!LO:TX:a:i:t=marc.	!	!LO:TX:a:i:t=marc.	!	!	!LO:TX:a:i:t=marc.	!	!	!	!	!	!	!	!	!	!	!
8A 8AA/)	.	.	8f#X\)	.	8A\	w mu-	.	8f#X\	w mu-	.	.	.	.	.	.	.
8G 8GG'/	.	.	8e'>\	.	8G\	-rach	.	8e\	-rach	.	.	.	.	.	.	.
8F# 8FF#'/	.	.	8d'>\	.	8F#\	two-	.	8d\	two-	.	.	.	.	.	.	.
8AJ 8AA'/	.	.	8e'>\J	.	8G\	-ich	.	8e\	-ich	.	.	.	.	.	.	.
=80	=80	=80	=80	=80	=80	=80	=80	=80	=80	=80	=80	=80	=80	=80	=80	=80
8.EL 8.EE/	.	2a/]	8.c#X\L	.	8.E\L	pa-	.	8.c#X\L	pa-	.	2a/]	.	.	2.r	.	.
16F#XJk 16FF#X/	.	.	16d\Jk	.	16F#X\Jk	.	.	16d\Jk	.	.	.	.	.	.	.	.
4G 4GG/	.	.	4e\	.	4G\	-ła	.	4e\	-ła,	.	.	.	.	.	.	.
4r	.	8.a/L	4r	.	4r	.	.	4r	.	.	8.a/	świę-	.	.	.	.
.	.	16b-X/Jk	.	.	.	.	.	.	.	.	16b-X/	-ty	.	.	.	.
=81	=81	=81	=81	=81	=81	=81	=81	=81	=81	=81	=81	=81	=81	=81	=81	=81
*	*	*	*	*^	*	*	*	*	*	*	*	*	*	*	*	*
!	!	!	!	!LO:HP:a	!	!	!	!LO:HP:a	!	!	!LO:HP:a	!	!	!LO:HP:a	!	!	!
8r	.	[2.cc/	8r	<	<	8r	.	<	8r	.	<	[2.cc\	żar	<	2.r	.	.
(8AL 8AA/	.	.	(>8fn\L	.	.	8A\	Niech	.	8fn\	Niech	.	.	.	.	.	.	.
8c 8C/)	.	.	8a\)	.	.	8c\	w mu-	.	8a\	 w mu-	.	.	.	.	.	.	.
!LO:SIC:n=1:v:s=8B-	!	!	!	!	!	!	!	!	!	!	!	!	!	!	!	!	!
8B 8BB-X'/	.	.	8g'>\	.	.	8B-X\	-rach	.	8g\	-rach	.	.	.	.	.	.	.
8A 8AA'/	.	.	8f'>\	.	.	8A\	two-	.	8f\	two-	.	.	.	.	.	.	.
8BJ 8BB-'/	.	.	8g'>\J	.	.	8B-\	-ich	.	8g\	-ich	.	.	.	.	.	.	.
*	*	*	*	*v	*v	*	*	*	*	*	*	*	*	*	*	*	*
=82	=82	=82	=82	=82	=82	=82	=82	=82	=82	=82	=82	=82	=82	=82	=82	=82
*	*	*	*	*^	*	*	*	*	*	*	*	*	*	*	*	*
8.GL 8.GG/	.	2cc/]	8.e\L	.	.	8.G\L	pa-	.	8.e\L	pa-	.	2cc\]	.	.	4r	.	.
16AJk 16AA/	.	.	16f\Jk	.	.	16A\Jk	.	.	16f\Jk	.	.	.	.	.	.	.	.
4B-X 4BB-X/	.	.	4g\	.	.	4B-X\	-ła	.	4g\	-ła	.	.	.	.	4r	.	.
!	!	!	!	!	!LO:DY:a	!	!	!	!	!	!LO:DY:rj	!	!	!LO:DY:rj	!	!	!LO:DY:rj
4r	.	8.ccL 8.c/	4ryy	ff	ff	8.c\	w dłu-	.	8.c\	w dłu-	ff	8.cc\	W dłu-	ff	8.cc\	W dłu-	ff
.	.	16ddJk 16d/	.	.	.	16d\	-gi	.	16d\	-gi	.	16dd\	-gi	.	16dd\	-gi	.
*	*	*v	*v	*	*	*	*	*	*	*	*	*	*	*	*	*	*
!!LO:PB:g=original
=83	=83	=83	=83	=83	=83	=83	=83	=83	=83	=83	=83	=83	=83	=83	=83	=83
8r	.	8ee-X 8e-X/	.	.	[2.e-X\	wiek	.	[2.e-X\	wiek	.	[2.ee-X\	wiek	.	[2.ee-X\	wiek	.
(8CL 8CC/	.	(8aa-XL [<8ee- 8a-X\	.	.	.	.	.	.	.	.	.	.	.	.	.	.
8E-X 8EE-X/)	.	8ccc 8ee-] 8cc\)	.	.	.	.	.	.	.	.	.	.	.	.	.	.
8D-X 8DD-X'/	.	8bb-X 8ee- 8b-X\	.	.	.	.	.	.	.	.	.	.	.	.	.	.
8C 8CC/	.	8aa- 8ee- 8a-\	.	.	.	.	.	.	.	.	.	.	.	.	.	.
8D-J 8DD-'/	.	8bb-J 8ee- 8b-\	.	.	.	.	.	.	.	.	.	.	.	.	.	.
*	*	*	*v	*v	*	*	*	*	*	*	*	*	*	*	*	*
=84	=84	=84	=84	=84	=84	=84	=84	=84	=84	=84	=84	=84	=84	=84	=84
8.BB-XL 8.BBB-X/	.	(8.ggL [8.ee-X 8.g\	.	2e-\]	.	.	2e-\]	.	.	2ee-\]	.	.	2ee-\]	.	.
16AA-XJk 16AAA-X/	.	16aa-XJk 16ee-] 16a-X\	.	.	.	.	.	.	.	.	.	.	.	.	.
4GG 4GGG/	.	4bb-X 4ee- 4b-X\)	.	.	.	.	.	.	.	.	.	.	.	.	.
4r	.	4r	.	8d-X\L	niech	.	8d-X\L	niech	.	8dd-X\L	niech	.	8dd-X\L	niech	.
.	.	.	.	8c\J	.	.	8c\J	.	.	8cc\J	.	.	8cc\J	.	.
=85	=85	=85	=85	=85	=85	=85	=85	=85	=85	=85	=85	=85	=85	=85	=85
8r	.	8r	.	[2.B-X\	kwi-	.	[2.B-X\	kwi-	.	[2.b-X\	kwi-	.	[2.b-X\	kwi-	.
(8D-XL 8DD-X/	.	(8bb-XL 8ff 8b-X\	.	.	.	.	.	.	.	.	.	.	.	.	.
8BB-X 8BBB-X/)	.	8ddd-X 8ff 8dd-X\)	.	.	.	.	.	.	.	.	.	.	.	.	.
(8D- 8DD-/	.	(8bb- 8ff 8b-\	.	.	.	.	.	.	.	.	.	.	.	.	.
8BB- 8BBB-/)	.	8gg 8dd- 8g\)	.	.	.	.	.	.	.	.	.	.	.	.	.
8AA-XJ 8AAA-X/	.	8ffJ 8dd- 8f\	.	.	.	.	.	.	.	.	.	.	.	.	.
=86	=86	=86	=86	=86	=86	=86	=86	=86	=86	=86	=86	=86	=86	=86	=86
*	*	*^	*	*	*	*	*	*	*	*	*	*	*	*	*
!	!	!LO:N:n=2:vis=8	!	!	!	!	!	!	!	!	!	!	!	!	!	!
8.GL 8.GG/	.	8.eenL 8.en/	[>4dd-X\	.	2B-\]	.	.	2B-\]	.	.	2b-\]	.	.	2b-\]	.	.
16FJk 16FF/	.	16ffJk 16f/	.	.	.	.	.	.	.	.	.	.	.	.	.	.
4En 4EEn/	.	4gg 4dd-] 4g/	2ryy	.	.	.	.	.	.	.	.	.	.	.	.	.
4r	.	4r	.	.	8A-X\L	-tnie	.	8A-X\L	-tnie	.	8a-X\L	-tnie	.	8a-X\L	-tnie	.
.	.	.	.	.	8G\J	.	.	8G\J	.	.	8g\J	.	.	8g\J	.	.
*	*	*v	*v	*	*	*	*	*	*	*	*	*	*	*	*	*
!!LO:LB:g=original
=87	=87	=87	=87	=87	=87	=87	=87	=87	=87	=87	=87	=87	=87	=87	=87
8r	.	8r	.	([<2.c-X\	two-	.	([<2.c-X\	two-	.	([<2.cc-X\	two-	.	([<2.cc-X\	two-	.
(8G#XL 8GG#X/	.	(>8eenL [>8bn 8en/	.	.	.	.	.	.	.	.	.	.	.	.	.
8E 8EE/)	.	8gg#X 8b] 8g#X/)	.	.	.	.	.	.	.	.	.	.	.	.	.
8F#X 8FF#X'/	.	8ff#X 8b 8f#X'>/	.	.	.	.	.	.	.	.	.	.	.	.	.
8G# 8GG#'/	.	8ee 8b 8e'>/	.	.	.	.	.	.	.	.	.	.	.	.	.
8AJ 8AA'/	.	8cc#XJ 8b 8c#X'>/	.	.	.	.	.	.	.	.	.	.	.	.	.
=88	=88	=88	=88	=88	=88	=88	=88	=88	=88	=88	=88	=88	=88	=88	=88
*	*	*^	*	*	*	*	*	*	*	*	*	*	*	*	*
8.G#XL 8.GG#X'/	.	8.eenL 8.en/	[>4b\	.	4c-\]	.	.	4c-\]	.	.	4cc-\]	.	.	4cc-\]	.	.
16F#XJk 16FF#X/	.	16ff#XJk 16f#X/	.	.	.	.	.	.	.	.	.	.	.	.	.	.
4E 4EE/	.	4gg#X 4b] 4g#X/	2ryy	.	4A-X\)	.	.	4A-X\)	.	.	4a-X\)	.	.	4a-X\)	.	.
4r	.	4r	.	.	4F-X\	-ja	.	4F-X/	-ja	.	4f-X/	-ja	.	4f-X/	-ja	.
*	*	*v	*v	*	*	*	*	*	*	*	*	*	*	*	*	*
=89	=89	=89	=89	=89	=89	=89	=89	=89	=89	=89	=89	=89	=89	=89	=89
8r	.	8r	.	[2.f-X\	chwa-	.	[2.f-X\	chw-	.	[2.ff-X\	chwa-	.	[2.ff-X\	chwa-	.
(8G#XL 8GG#X/	.	(8bbL 8ee 8b\	.	.	.	.	.	.	.	.	.	.	.	.	.
8C#X 8CC#X/)	.	8eee 8gg#X 8ee\)	.	.	.	.	.	.	.	.	.	.	.	.	.
8E 8EE/	.	8ccc#X 8gg# 8cc#X'\	.	.	.	.	.	.	.	.	.	.	.	.	.
8G# 8GG#/	.	8bb 8ee 8b'\	.	.	.	.	.	.	.	.	.	.	.	.	.
8F#XJ 8FF#X/	.	8aaJ 8ee 8a'\	.	.	.	.	.	.	.	.	.	.	.	.	.
=90	=90	=90	=90	=90	=90	=90	=90	=90	=90	=90	=90	=90	=90	=90	=90
8.EL 8.EE/	.	8.gg#XL 8.b 8.g#X\	.	4f-\]	.	.	4f-\]	.	.	4ff-\]	.	.	4ff-\]	.	.
16F#XJk 16FF#X/	.	16ff#XJk 16b 16f#X\	.	.	.	.	.	.	.	.	.	.	.	.	.
4G#X 4GG#X/	.	4ee 4b 4e/	.	4c-X\	-ła.	.	4c-X\	-ła.	.	4cc-X\	-ła.	.	4cc-X\	-ła	.
4A 4AA/	.	4ee-X 4cc-X 4g-X 4e-X/	.	4r	.	.	4r	.	.	4r	.	.	4r	.	.
!!LO:PB:g=original
=91||	=91||	=91||	=91||	=91||	=91||	=91||	=91||	=91||	=91||	=91||	=91||	=91||	=91||	=91||	=91||
*k[b-e-a-]	*	*k[b-e-a-]	*	*k[b-e-a-]	*	*	*k[b-e-a-]	*	*	*k[b-e-a-]	*	*	*k[b-e-a-]	*	*
4B-X 4BB-X/	.	4dd 4b-X 4f 4d/	.	2.r	.	.	2.r	.	.	2.r	.	.	2.r	.	.
*tremolo	*	*	*	*	*	*	*	*	*	*	*	*	*	*	*
!	!	!	!LO:DY:a=2	!	!	!	!	!	!	!	!	!	!	!	!
32BBB-/LLL	.	4r	sfz	.	.	.	.	.	.	.	.	.	.	.	.
32BB-/	.	.	.	.	.	.	.	.	.	.	.	.	.	.	.
32BBB-/	.	.	.	.	.	.	.	.	.	.	.	.	.	.	.
!	!	!	!LO:DY:a=2	!	!	!	!	!	!	!	!	!	!	!	!
32BB-/	.	.	p	.	.	.	.	.	.	.	.	.	.	.	.
32BBB-/	.	.	.	.	.	.	.	.	.	.	.	.	.	.	.
32BB-/	.	.	.	.	.	.	.	.	.	.	.	.	.	.	.
32BBB-/	.	.	.	.	.	.	.	.	.	.	.	.	.	.	.
32BB-/	.	.	.	.	.	.	.	.	.	.	.	.	.	.	.
32BBB-/	.	4r	.	.	.	.	.	.	.	.	.	.	.	.	.
32BB-/	.	.	.	.	.	.	.	.	.	.	.	.	.	.	.
32BBB-/	.	.	.	.	.	.	.	.	.	.	.	.	.	.	.
32BB-/	.	.	.	.	.	.	.	.	.	.	.	.	.	.	.
32BBB-/	.	.	.	.	.	.	.	.	.	.	.	.	.	.	.
32BB-/	.	.	.	.	.	.	.	.	.	.	.	.	.	.	.
32BBB-/	.	.	.	.	.	.	.	.	.	.	.	.	.	.	.
32BB-/JJJ	.	.	.	.	.	.	.	.	.	.	.	.	.	.	.
=92	=92	=92	=92	=92	=92	=92	=92	=92	=92	=92	=92	=92	=92	=92	=92
32BBB-/LLL	.	4r	.	2.r	.	.	2.r	.	.	2.r	.	.	2.r	.	.
32BB-/	.	.	.	.	.	.	.	.	.	.	.	.	.	.	.
32BBB-/	.	.	.	.	.	.	.	.	.	.	.	.	.	.	.
32BB-/	.	.	.	.	.	.	.	.	.	.	.	.	.	.	.
32BBB-/	.	.	.	.	.	.	.	.	.	.	.	.	.	.	.
32BB-/	.	.	.	.	.	.	.	.	.	.	.	.	.	.	.
32BBB-/	.	.	.	.	.	.	.	.	.	.	.	.	.	.	.
32BB-/	.	.	.	.	.	.	.	.	.	.	.	.	.	.	.
!	!	!	!LO:DY:a	!	!	!	!	!	!	!	!	!	!	!	!
32BBB-/	.	[<2f [2A-^/	mf	.	.	.	.	.	.	.	.	.	.	.	.
32BB-/	.	.	.	.	.	.	.	.	.	.	.	.	.	.	.
32BBB-/	.	.	.	.	.	.	.	.	.	.	.	.	.	.	.
32BB-/	.	.	.	.	.	.	.	.	.	.	.	.	.	.	.
32BBB-/	.	.	.	.	.	.	.	.	.	.	.	.	.	.	.
32BB-/	.	.	.	.	.	.	.	.	.	.	.	.	.	.	.
32BBB-/	.	.	.	.	.	.	.	.	.	.	.	.	.	.	.
32BB-/	.	.	.	.	.	.	.	.	.	.	.	.	.	.	.
32BBB-/	.	.	.	.	.	.	.	.	.	.	.	.	.	.	.
32BB-/	.	.	.	.	.	.	.	.	.	.	.	.	.	.	.
32BBB-/	.	.	.	.	.	.	.	.	.	.	.	.	.	.	.
32BB-/	.	.	.	.	.	.	.	.	.	.	.	.	.	.	.
32BBB-/	.	.	.	.	.	.	.	.	.	.	.	.	.	.	.
32BB-/	.	.	.	.	.	.	.	.	.	.	.	.	.	.	.
32BBB-/	.	.	.	.	.	.	.	.	.	.	.	.	.	.	.
32BB-/JJJ	.	.	.	.	.	.	.	.	.	.	.	.	.	.	.
=93	=93	=93	=93	=93	=93	=93	=93	=93	=93	=93	=93	=93	=93	=93	=93
*	*	*^	*	*	*	*	*	*	*	*	*	*	*	*	*
*rep	*	*	*	*	*	*	*	*	*	*	*	*	*	*	*	*
32BBB-/LLL	.	2f_> 2A-\_<	4raa	.	2.r	.	.	2.r	.	.	2.r	.	.	2.r	.	.
32BB-/	.	.	.	.	.	.	.	.	.	.	.	.	.	.	.	.
32BBB-/	.	.	.	.	.	.	.	.	.	.	.	.	.	.	.	.
32BB-/	.	.	.	.	.	.	.	.	.	.	.	.	.	.	.	.
32BBB-/	.	.	.	.	.	.	.	.	.	.	.	.	.	.	.	.
32BB-/	.	.	.	.	.	.	.	.	.	.	.	.	.	.	.	.
32BBB-/	.	.	.	.	.	.	.	.	.	.	.	.	.	.	.	.
32BB-/	.	.	.	.	.	.	.	.	.	.	.	.	.	.	.	.
32BBB-/	.	.	8raa	.	.	.	.	.	.	.	.	.	.	.	.	.
32BB-/	.	.	.	.	.	.	.	.	.	.	.	.	.	.	.	.
32BBB-/	.	.	.	.	.	.	.	.	.	.	.	.	.	.	.	.
32BB-/	.	.	.	.	.	.	.	.	.	.	.	.	.	.	.	.
!	!	!LO:TX:a:i:t=marc.	!	!	!	!	!	!	!	!	!	!	!	!	!	!
32BBB-/	.	.	(>8cc-XL 8e-/	.	.	.	.	.	.	.	.	.	.	.	.	.
32BB-/	.	.	.	.	.	.	.	.	.	.	.	.	.	.	.	.
32BBB-/	.	.	.	.	.	.	.	.	.	.	.	.	.	.	.	.
32BB-/	.	.	.	.	.	.	.	.	.	.	.	.	.	.	.	.
32BBB-/	.	8f] 8A-\]	8b- 8d/)	.	.	.	.	.	.	.	.	.	.	.	.	.
32BB-/	.	.	.	.	.	.	.	.	.	.	.	.	.	.	.	.
32BBB-/	.	.	.	.	.	.	.	.	.	.	.	.	.	.	.	.
32BB-/	.	.	.	.	.	.	.	.	.	.	.	.	.	.	.	.
32BBB-/	.	8rF	8cc-J 8e-'>/	.	.	.	.	.	.	.	.	.	.	.	.	.
32BB-/	.	.	.	.	.	.	.	.	.	.	.	.	.	.	.	.
32BBB-/	.	.	.	.	.	.	.	.	.	.	.	.	.	.	.	.
32BB-/JJJ	.	.	.	.	.	.	.	.	.	.	.	.	.	.	.	.
*Xtremolo	*	*	*	*	*	*	*	*	*	*	*	*	*	*	*	*
*Xrep	*	*	*	*	*	*	*	*	*	*	*	*	*	*	*	*
*	*	*v	*v	*	*	*	*	*	*	*	*	*	*	*	*	*
=94	=94	=94	=94	=94	=94	=94	=94	=94	=94	=94	=94	=94	=94	=94	=94
*^	*	*	*	*	*	*	*	*	*	*	*	*	*	*	*
*	*rep	*	*	*	*	*	*	*	*	*	*	*	*	*	*	*
*	*tremolo	*	*	*	*	*	*	*	*	*	*	*	*	*	*	*
4rB	32BBB-\LLL	.	[4b- [4d/	.	4r	.	.	4r	.	.	4r	.	.	4r	.	.
.	32BB-\	.	.	.	.	.	.	.	.	.	.	.	.	.	.	.
.	32BBB-\	.	.	.	.	.	.	.	.	.	.	.	.	.	.	.
.	32BB-\	.	.	.	.	.	.	.	.	.	.	.	.	.	.	.
.	32BBB-\	.	.	.	.	.	.	.	.	.	.	.	.	.	.	.
.	32BB-\	.	.	.	.	.	.	.	.	.	.	.	.	.	.	.
.	32BBB-\	.	.	.	.	.	.	.	.	.	.	.	.	.	.	.
.	32BB-\	.	.	.	.	.	.	.	.	.	.	.	.	.	.	.
8rB	32BBB-\	.	8b-] 8d/]	.	4r	.	.	4r	.	.	4r	.	.	4r	.	.
.	32BB-\	.	.	.	.	.	.	.	.	.	.	.	.	.	.	.
.	32BBB-\	.	.	.	.	.	.	.	.	.	.	.	.	.	.	.
.	32BB-\	.	.	.	.	.	.	.	.	.	.	.	.	.	.	.
(>8A-/L	32BBB-\	.	8r	.	.	.	.	.	.	.	.	.	.	.	.	.
.	32BB-\	.	.	.	.	.	.	.	.	.	.	.	.	.	.	.
.	32BBB-\	.	.	.	.	.	.	.	.	.	.	.	.	.	.	.
.	32BB-\	.	.	.	.	.	.	.	.	.	.	.	.	.	.	.
8G/)	32BBB-\	.	4r	.	8.B-\	W dłu-	p	8.B-\	W dłu-	p	8.b-\	W dłu-	p	8.b-\	W dłu-	p
.	32BB-\	.	.	.	.	.	.	.	.	.	.	.	.	.	.	.
.	32BBB-\	.	.	.	.	.	.	.	.	.	.	.	.	.	.	.
.	32BB-\	.	.	.	.	.	.	.	.	.	.	.	.	.	.	.
8F/J	32BBB-\	.	.	.	.	.	.	.	.	.	.	.	.	.	.	.
.	32BB-\	.	.	.	.	.	.	.	.	.	.	.	.	.	.	.
.	32BBB-\	.	.	.	16B-\	-gi	.	16B-\	-gi	.	16b-\	-gi	.	16b-\	-gi	.
.	32BB-\JJJ	.	.	.	.	.	.	.	.	.	.	.	.	.	.	.
*	*Xrep	*	*	*	*	*	*	*	*	*	*	*	*	*	*	*
!!LO:LB:g=original
=95	=95	=95	=95	=95	=95	=95	=95	=95	=95	=95	=95	=95	=95	=95	=95	=95
*	*rep	*	*	*	*	*	*	*	*	*	*	*	*	*	*	*
!	!	!	!	!LO:HP:t=cresc sempre	!	!	!	!	!	!	!	!	!	!	!	!
8.En/L	32BBB-\LLL	.	4r	<	[2.B-\	wiek	<[	[2.B-\	wiek	<[	[2.b-\	wiek	<[	[2.b-\	wiek	<[
.	32BB-\	.	.	.	.	.	.	.	.	.	.	.	.	.	.	.
.	32BBB-\	.	.	.	.	.	.	.	.	.	.	.	.	.	.	.
.	32BB-\	.	.	.	.	.	.	.	.	.	.	.	.	.	.	.
.	32BBB-\	.	.	.	.	.	.	.	.	.	.	.	.	.	.	.
.	32BB-\	.	.	.	.	.	.	.	.	.	.	.	.	.	.	.
16F/Jk	32BBB-\	.	.	.	.	.	.	.	.	.	.	.	.	.	.	.
.	32BB-\	.	.	.	.	.	.	.	.	.	.	.	.	.	.	.
8G/	32BBB-\	.	8r	.	.	.	.	.	.	.	.	.	.	.	.	.
.	32BB-\	.	.	.	.	.	.	.	.	.	.	.	.	.	.	.
.	32BBB-\	.	.	.	.	.	.	.	.	.	.	.	.	.	.	.
.	32BB-\	.	.	.	.	.	.	.	.	.	.	.	.	.	.	.
8rB	32BBB-\	.	(8dd-XL 8f/	.	.	.	.	.	.	.	.	.	.	.	.	.
.	32BB-\	.	.	.	.	.	.	.	.	.	.	.	.	.	.	.
.	32BBB-\	.	.	.	.	.	.	.	.	.	.	.	.	.	.	.
.	32BB-\	.	.	.	.	.	.	.	.	.	.	.	.	.	.	.
4rB	32BBB-\	.	8cc 8en/)	.	.	.	.	.	.	.	.	.	.	.	.	.
.	32BB-\	.	.	.	.	.	.	.	.	.	.	.	.	.	.	.
.	32BBB-\	.	.	.	.	.	.	.	.	.	.	.	.	.	.	.
.	32BB-\	.	.	.	.	.	.	.	.	.	.	.	.	.	.	.
.	32BBB-\	.	8dd-J 8f/	.	.	.	.	.	.	.	.	.	.	.	.	.
.	32BB-\	.	.	.	.	.	.	.	.	.	.	.	.	.	.	.
.	32BBB-\	.	.	.	.	.	.	.	.	.	.	.	.	.	.	.
.	32BB-\JJJ	.	.	.	.	.	.	.	.	.	.	.	.	.	.	.
*	*Xrep	*	*	*	*	*	*	*	*	*	*	*	*	*	*	*
=96	=96	=96	=96	=96	=96	=96	=96	=96	=96	=96	=96	=96	=96	=96	=96	=96
*	*rep	*	*	*	*	*	*	*	*	*	*	*	*	*	*	*
4rB	32BBB-\LLL	.	[4cc [4en/	.	2B-\]	.	.	2B-\]	.	.	2b-\]	.	.	2b-\]	.	.
.	32BB-\	.	.	.	.	.	.	.	.	.	.	.	.	.	.	.
.	32BBB-\	.	.	.	.	.	.	.	.	.	.	.	.	.	.	.
.	32BB-\	.	.	.	.	.	.	.	.	.	.	.	.	.	.	.
.	32BBB-\	.	.	.	.	.	.	.	.	.	.	.	.	.	.	.
.	32BB-\	.	.	.	.	.	.	.	.	.	.	.	.	.	.	.
.	32BBB-\	.	.	.	.	.	.	.	.	.	.	.	.	.	.	.
.	32BB-\	.	.	.	.	.	.	.	.	.	.	.	.	.	.	.
8rB	32BBB-\	.	8cc] 8e/]	.	.	.	.	.	.	.	.	.	.	.	.	.
.	32BB-\	.	.	.	.	.	.	.	.	.	.	.	.	.	.	.
.	32BBB-\	.	.	.	.	.	.	.	.	.	.	.	.	.	.	.
.	32BB-\	.	.	.	.	.	.	.	.	.	.	.	.	.	.	.
8B-'>/L	32BBB-\	.	8r	.	.	.	.	.	.	.	.	.	.	.	.	.
.	32BB-\	.	.	.	.	.	.	.	.	.	.	.	.	.	.	.
.	32BBB-\	.	.	.	.	.	.	.	.	.	.	.	.	.	.	.
.	32BB-\	.	.	.	.	.	.	.	.	.	.	.	.	.	.	.
8A-'>/	32BBB-\	.	4r	.	8.B-\	w dłu-	.	8.B-\	w dłu-	.	8.b-\	w dłu-	.	8.b-\	w dłu-	.
.	32BB-\	.	.	.	.	.	.	.	.	.	.	.	.	.	.	.
.	32BBB-\	.	.	.	.	.	.	.	.	.	.	.	.	.	.	.
.	32BB-\	.	.	.	.	.	.	.	.	.	.	.	.	.	.	.
8G'>/J	32BBB-\	.	.	.	.	.	.	.	.	.	.	.	.	.	.	.
.	32BB-\	.	.	.	.	.	.	.	.	.	.	.	.	.	.	.
.	32BBB-\	.	.	.	16B-\	-gi	.	16B-\	-gi	.	16b-\	-gi	.	16b-\	-gi	.
.	32BB-\JJJ	.	.	.	.	.	.	.	.	.	.	.	.	.	.	.
*	*Xrep	*	*	*	*	*	*	*	*	*	*	*	*	*	*	*
=97	=97	=97	=97	=97	=97	=97	=97	=97	=97	=97	=97	=97	=97	=97	=97	=97
*	*	*	*^	*	*	*	*	*	*	*	*	*	*	*	*	*
*	*rep	*	*	*	*	*	*	*	*	*	*	*	*	*	*	*	*
8.F/L	32BBB-\LLL	.	4r	4ryy	.	[4B-\	wiek,	.	[4B-\	wiek,	.	[4b-\	wiek,	.	[4b-\	wiek,	.
.	32BB-\	.	.	.	.	.	.	.	.	.	.	.	.	.	.	.	.
.	32BBB-\	.	.	.	.	.	.	.	.	.	.	.	.	.	.	.	.
.	32BB-\	.	.	.	.	.	.	.	.	.	.	.	.	.	.	.	.
.	32BBB-\	.	.	.	.	.	.	.	.	.	.	.	.	.	.	.	.
.	32BB-\	.	.	.	.	.	.	.	.	.	.	.	.	.	.	.	.
16G/Jk	32BBB-\	.	.	.	.	.	.	.	.	.	.	.	.	.	.	.	.
.	32BB-\	.	.	.	.	.	.	.	.	.	.	.	.	.	.	.	.
8A-/	32BBB-\	.	8r	8ryy	.	8B-\]	.	.	8B-\]	.	.	8b-\]	.	.	8b-\]	.	.
.	32BB-\	.	.	.	.	.	.	.	.	.	.	.	.	.	.	.	.
.	32BBB-\	.	.	.	.	.	.	.	.	.	.	.	.	.	.	.	.
.	32BB-\	.	.	.	.	.	.	.	.	.	.	.	.	.	.	.	.
8rB	32BBB-\	.	(8ffL 8f/	4ee- 4cc-X\	.	8r	.	.	8r	.	.	8r	.	.	8r	.	.
.	32BB-\	.	.	.	.	.	.	.	.	.	.	.	.	.	.	.	.
.	32BBB-\	.	.	.	.	.	.	.	.	.	.	.	.	.	.	.	.
.	32BB-\	.	.	.	.	.	.	.	.	.	.	.	.	.	.	.	.
4rB	32BBB-\	.	8een 8en/)	.	.	4r	.	.	4r	.	.	4r	.	.	4r	.	.
.	32BB-\	.	.	.	.	.	.	.	.	.	.	.	.	.	.	.	.
.	32BBB-\	.	.	.	.	.	.	.	.	.	.	.	.	.	.	.	.
.	32BB-\	.	.	.	.	.	.	.	.	.	.	.	.	.	.	.	.
.	32BBB-\	.	8ffJ 8ee-X 8cc- 8f/	8ryy	.	.	.	.	.	.	.	.	.	.	.	.	.
.	32BB-\	.	.	.	.	.	.	.	.	.	.	.	.	.	.	.	.
.	32BBB-\	.	.	.	.	.	.	.	.	.	.	.	.	.	.	.	.
.	32BB-\JJJ	.	.	.	.	.	.	.	.	.	.	.	.	.	.	.	.
*Xtremolo	*Xtremolo	*	*	*	*	*	*	*	*	*	*	*	*	*	*	*	*
*	*Xrep	*	*	*	*	*	*	*	*	*	*	*	*	*	*	*	*
*v	*v	*	*	*	*	*	*	*	*	*	*	*	*	*	*	*	*
*	*	*v	*v	*	*	*	*	*	*	*	*	*	*	*	*	*
=98	=98	=98	=98	=98	=98	=98	=98	=98	=98	=98	=98	=98	=98	=98	=98
[4F [4FF/	.	[4aa- [<4ee- [4cc-X [4a-\	.	4r	.	.	4r	.	.	4r	.	.	4r	.	.
8F] 8FF/]	.	8aa-] 8ee-] 8cc-] 8a-\]	.	8r	.	.	8r	.	.	8r	.	.	8r	.	.
!	!	!	!LO:DY:a	!	!	!LO:DY:a	!	!	!LO:DY:a	!	!	!LO:DY:a	!	!	!
(8A-L 8AA-/	.	(8ccc-XL 8ff [8ee- 8cc-\	f	8c-X\	niech	f	8c-X\	niech	f	8cc-X\	niech	f	8cc-X\	niech	.
8G 8GG/)	.	8bb- 8ff 8ee-] 8b-\)	.	8B-\	kwit-	.	8B-\	kwit-	.	8b-\	kwit-	.	8b-\	kwit-	.
8A-J 8AA-/	.	8ccc-J 8ff 8ee- 8cc-\	.	8c-\	-nie	.	8c-\	-nie	.	8cc-\	-nie	.	8cc-\	-nie	.
!!LO:PB:g=original
=99	=99	=99	=99	=99	=99	=99	=99	=99	=99	=99	=99	=99	=99	=99	=99
*	*	*^	*	*	*	*	*	*	*	*	*	*	*	*	*
[4F [4FF/	.	[4eee- [4ccc-X [4aa- [4ee-\	4.ryy	.	[2.e-\	two-	.	[2.e-\	two-	.	[2.ee-\	two-	.	[2.ee-\	two-	.
8F] 8FF/]	.	8eee-] 8ccc-] 8aa-] 8ee-\]	.	.	.	.	.	.	.	.	.	.	.	.	.	.
*	*	*v	*v	*	*	*	*	*	*	*	*	*	*	*	*	*
*	*	*8va	*	*	*	*	*	*	*	*	*	*	*	*	*
*	*	*^	*	*	*	*	*	*	*	*	*	*	*	*	*
(8A-L 8AA-/	.	(<8fffL 8ff/	4eee- 4ccc-X\	.	.	.	.	.	.	.	.	.	.	.	.	.
8G 8GG/)	.	8eeen 8een/)	.	.	.	.	.	.	.	.	.	.	.	.	.	.
8A-J 8AA-/	.	8fffJ 8eee-X 8ccc- 8ff/	8ryy	.	.	.	.	.	.	.	.	.	.	.	.	.
*	*	*v	*v	*	*	*	*	*	*	*	*	*	*	*	*	*
=100	=100	=100	=100	=100	=100	=100	=100	=100	=100	=100	=100	=100	=100	=100	=100
8F 8FF/	.	8aaa- 8eee- 8ccc-X 8aa-\	.	2e-\]	.	.	2e-\]	.	.	2ee-\]	.	.	2ee-\]	.	.
*	*	*X8va	*	*	*	*	*	*	*	*	*	*	*	*	*
8r	.	8r	.	.	.	.	.	.	.	.	.	.	.	.	.
[2A- [2AA-/	.	[2ff [2ee- [2cc-X [2f^/	ff	.	.	.	.	.	.	.	.	.	.	.	.
.	.	.	.	4c-X\	-ja	.	4c-X\	-ja	.	4cc-X\	-ja	.	4cc-X\	-ja	.
=101	=101	=101	=101	=101	=101	=101	=101	=101	=101	=101	=101	=101	=101	=101	=101
4A-] 4AA-/]	.	4ff] 4ee-] 4cc-] 4f/]	>	(4A-\	chwa-	>	(4A-\	chwa-	>	(4a-\	chwa-	>	(4a-\	chwa-	>
(4F 4FF'/	.	4ee- 4a- 4e-'/	.	4F\	.	.	4F/	.	.	4f/	.	.	4f/	.	.
4F 4AA-'/)	.	(4cc-X 4f 4e- (4c-X'/	.	4c-X\)	.	.	4c-X\)	.	.	4cc-X\)	.	.	4cc-X\)	.	.
=102	=102	=102	=102	=102	=102	=102	=102	=102	=102	=102	=102	=102	=102	=102	=102
[2.F [2.BB-/	.	[2.b- 2.f [2.d 2.B-/))	]	2B-\	-ła!	]	2B-\	-ła!	]	2b-\	-ła!	]	2b-\	-ła!	]
.	.	.	.	4r	.	.	4r	.	.	4r	.	.	4r	.	.
=103	=103	=103	=103	=103	=103	=103	=103	=103	=103	=103	=103	=103	=103	=103	=103
4F] 4BB-/]	.	4b-] 4f 4d] 4B-/	.	4r	.	.	4r	.	.	4r	.	.	4r	.	.
!	!	!	!LO:DY:rj	!	!	!LO:DY:rj	!	!	!LO:DY:rj	!	!	!LO:DY:rj	!	!	!LO:DY:rj
4BB-/	.	4b- 4B-/	f	4B-\	Po-	f	4B-\	Po-	f	4b-\	Po-	f	4b-\	Po-	f
4BB-/	.	4b- 4B-/	.	4B-\	-zdro-	.	4B-\	-zdro-	.	4b-\	-zdro-	.	4b-\	-zdro-	.
!!LO:LB:g=original
=104	=104	=104	=104	=104	=104	=104	=104	=104	=104	=104	=104	=104	=104	=104	=104
8.B-L 8.E-\	.	8.ggL 8.ee- 8.b- 8.g\	.	8.E-\	-wio-	.	8.B-\	-wio-	.	8.b-\	-wio-	.	8.gg\	-wio-	.
16BnJk 16E-\	.	16ffJk 16a-\	.	16E-\	-na	.	16Bn\	-na	.	16a-\	-na	.	16ff\	-na	.
!LO:N:n=1:vis=4	!	!	!	!	!	!	!	!	!	!	!	!	!	!	!
4.c 4.E-\	.	4.ee- 4.g\	.	4.E-\	bądź	.	4.c\	bądź	.	4.g\	bądź	.	4.ee-\	bądź	.
8d 8E-\	.	8cc 8a-\	.	8E-\	ko-	.	8d\	ko-	.	8a-\	ty	.	8cc\	ty	.
=105	=105	=105	=105	=105	=105	=105	=105	=105	=105	=105	=105	=105	=105	=105	=105
*	*	*^	*	*	*	*	*	*	*	*	*	*	*	*	*
4e- 4E-\	.	8b-L 8g/	2ryy	.	4E-\	-leb-	>	4e-\	-leb-	>	8g/	sta-	>	8b-\	sta-	>
.	.	8ccJ 8a-/	.	.	.	.	.	.	.	.	8a-/	-ro-	.	8cc\	-ro-	.
4E- 4EE-/	.	4b- 4g/	.	.	4E-\	-ko	]	4e-\	-ko	]	4g/	-da-	]	4b-\	-da-	]
!	!	!LO:TX:a:i:t=Trombe	!	!	!	!	!	!	!	!	!	!	!	!	!	!
4r	.	[[<8e-/L	4e-^\	.	4r	.	.	4r	.	.	4e-/	-wna	.	8e-/L	-wna,	.
.	.	8f/J	.	.	.	.	.	.	.	.	.	.	.	8f/J	.	.
=106	=106	=106	=106	=106	=106	=106	=106	=106	=106	=106	=106	=106	=106	=106	=106	=106
4r	.	8gL 8e-/]]	4ryy	.	4r	.	.	4r	.	.	8e-/	Męż-	.	8g/	Męż-	.
.	.	8a-J 8f/	.	.	.	.	.	.	.	.	8f/	-nych	.	8a-/	-nych	.
8r	.	[2b-/	[2g\	.	8r	.	.	8r	.	.	[2g/	dziel-	.	[2b-\	dziel-	.
!LO:TX:b:i:t=Cor. e Fag.	!	!	!	!	!LO:TX:a:i:t=marc.	!	!	!LO:TX:a:i:t=marc.	!	!	!	!	!	!	!	!
8fL 8d-X'\	.	.	.	.	8d-X\	ty	.	8f'\	ty	.	.	.	.	.	.	.
!LO:SIC:v:n=1:s=8en	!	!	!	!	!	!	!	!	!	!	!	!	!	!	!	!
8e- 8c'\	.	.	.	.	8c\	dziel-	.	8en'\	dziel-	.	.	.	.	.	.	.
8fJ 8d-'\	.	.	.	.	8d-\	-nych	.	8f'\	-nych	.	.	.	.	.	.	.
*	*	*v	*v	*	*	*	*	*	*	*	*	*	*	*	*	*
=107	=107	=107	=107	=107	=107	=107	=107	=107	=107	=107	=107	=107	=107	=107	=107
2en 2c\	.	8b-]L 8g/]	.	2c\	serc	.	2en\	serc	.	8g/]	.	.	8b-\]	.	.
.	.	8b-J 8g/	.	.	.	.	.	.	.	8g/	-nych	.	8b-\	-nych	.
.	.	4cc 4a-/	.	.	.	.	.	.	.	4a-/	serc	.	4cc\	serc	.
4r	.	4g 4en/	.	4r	.	.	4r	.	.	4en/	ko-	.	4g/	ko-	.
!!LO:PB:g=original
=108	=108	=108	=108	=108	=108	=108	=108	=108	=108	=108	=108	=108	=108	=108	=108
4r	.	4b- 4g/	.	4r	.	.	4r	.	.	4g/	-leb-	.	4b-\	-leb-	.
8r	.	[2a- [2f/	.	8r	.	.	8r	.	.	[2f/	-ko	.	[<2a-\	-ko	.
8e-L 8c-X'\	.	.	.	8c-X\	ty	.	8e-X\	ty	.	.	.	.	.	.	.
8d 8B-'\	.	.	.	8B-\	mę-	.	8d\	mę-	.	.	.	.	.	.	.
8e-J 8c-'\	.	.	.	8c-\	-żnych	.	8e-\	-żnych	.	.	.	.	.	.	.
=109	=109	=109	=109	=109	=109	=109	=109	=109	=109	=109	=109	=109	=109	=109	=109
4d 4B-\	.	8a-]L 8f/]	.	4B-\	serc	.	4d\	serc	.	8f/]	.	.	8a-\]	.	.
.	.	8gJ 8en/	.	.	.	.	.	.	.	8en/	ty	.	8g\	ty	.
8r	.	[2a- [2f/	.	8r	.	.	8r	.	.	[2f/	serc	.	[<2a-\	serc	.
8e-L 8c-X\	.	.	.	8c-X\	ty	.	8e-\	ty	.	.	.	.	.	.	.
8d 8B-\	.	.	.	8B-\	dziel-	.	8d\	dziel-	.	.	.	.	.	.	.
8e-J 8c-\	.	.	.	8c-\	-nych	.	8e-\	-nych	.	.	.	.	.	.	.
=110	=110	=110	=110	=110	=110	=110	=110	=110	=110	=110	=110	=110	=110	=110	=110
4d 4B-\	.	8a-]L 8f/]	.	4B-\	serc	.	4d\	serc	.	8f/]	.	.	8a-\]	.	.
.	.	8a-J 8f/	.	.	.	.	.	.	.	8f/	ko-	.	8a-\	ko-	.
8r	.	4ff 4a-\	.	8r	.	.	8r	.	.	4a-/	-leb-	.	4ff\	-leb-	.
8e-L 8c-X'\	.	.	.	8c-X\	ko-	.	8e-\	ko-	.	.	.	.	.	.	.
8d 8B-'\	.	4b- 4a-\	.	8B-\	-leb-	.	8d\	-leb-	.	4a-/	-ko	.	4b-\	-ko	.
8fJ 8d'\	.	.	.	8d\	-ko	.	8f\	-ko	.	.	.	.	.	.	.
=111	=111	=111	=111	=111	=111	=111	=111	=111	=111	=111	=111	=111	=111	=111	=111
4e-\	.	4cc 4a-/	.	4e-\	sła-	.	4e-\	sła-	.	4a-/	sła-	.	4cc\	sła-	.
4E-\	.	4b- 4g/	.	4E-\	-wna	.	4e-\	-wna	.	4g/	-wna	.	4b-\	-wna	.
!	!	!	!LO:DY:a=2:rj	!	!	!LO:DY:a:rj	!	!	!	!	!	!	!	!	!
8.B-\L	.	4r	p	8.B-\	.	p	4r	.	.	4r	.	.	4r	.	.
16c\Jk	.	.	.	16c\	.	.	.	.	.	.	.	.	.	.	.
!!LO:LB:g=original
=112	=112	=112	=112	=112	=112	=112	=112	=112	=112	=112	=112	=112	=112	=112	=112
*^	*	*	*	*	*	*	*	*	*	*	*	*	*	*	*
8r	[2.B-\	.	8r	.	[2.B-\	młódź!	.	8r	.	.	8r	.	.	8r	.	.
!	!	!	!	!LO:DY:a	!	!	!	!	!	!	!	!	!	!	!	!
(8e-/L	.	.	(8cccL 8gg 8cc\	<	.	.	<	8e-\	Na	<	8g/	Na	<	8cc\	Na	<
8g/)	.	.	8eee- 8bb- 8ee-\)	.	.	.	.	8g\L	twar-	.	4.b-\	twar-	.	8ee-\L	twar-	.
8f/	.	.	8ddd 8bb- 8dd\	.	.	.	.	8f\	.	.	.	.	.	8dd\	.	.
8e-/	.	.	8ccc 8bb- 8cc\	[	.	.	[	8e-\J	.	[	.	.	[	8cc\J	.	[
8g/J	.	.	8eee-J 8bb- 8ee-\	.	.	.	.	8g\	-dy	.	8b-\	-dy	.	8ee-\	-dy	.
=113	=113	=113	=113	=113	=113	=113	=113	=113	=113	=113	=113	=113	=113	=113	=113	=113
!	!	!	!LO:N:n=3:vis=8	!LO:DY:a	!	!	!	!	!	!	!	!	!	!	!	!
8.f/L	2B-\]	.	8.dddL 8.aa- 8.dd\	>	2B-\]	.	>	8.f\	ży-	>	8.a-\	ży-	>	8.dd\	ży-	>
16e-/Jk	.	.	16eee-Jk 16aa- 16ee-\	.	.	.	.	16e-\	-cia	.	16a-\	-cia	.	16cc\	-cia	.
4d/	.	.	4fff 4aa- 4ff\	]	.	.	]	4d\	znój	]	4a-\	znój	]	4b-\	znój,	]
4r	8.B-\L	.	4r	.	8.B-\	Har-	.	4r	.	.	4r	.	.	4r	.	.
.	16c\Jk	.	.	.	16c\	-tuj	.	.	.	.	.	.	.	.	.	.
=114	=114	=114	=114	=114	=114	=114	=114	=114	=114	=114	=114	=114	=114	=114	=114	=114
8r	[2.B-\	.	8r	.	[2.B-\	młódź	.	8r	.	.	8r	.	.	8r	.	.
(8f/L	.	.	(8dddL 8bb- 8dd\	<	.	.	<	8f\	Na	<	8b-\	Na	<	8dd\	Na	<
8a-/)	.	.	8fff 8bb- 8ff\)	.	.	.	.	8a-\L	twar-	.	4.b-\	twar-	.	8ff\L	twar-	.
8g/	.	.	8eee- 8bb- 8ee-\	.	.	.	.	8g\	.	.	.	.	.	8ee-\	.	.
8f/	.	.	8ddd 8bb- 8dd\	.	.	.	.	8f\J	.	.	.	.	.	8dd\J	.	.
8a-/J	.	.	8fffJ 8bb- 8ff\	.	.	.	.	8a-\	-dy	.	8b-\	-dy	.	8ff\	-dy	.
=115	=115	=115	=115	=115	=115	=115	=115	=115	=115	=115	=115	=115	=115	=115	=115	=115
8.g/L	2B-\]	.	8.eee-L 8.bb- 8.ee-\	.	2B-\]	.	.	8.g\	ży-	.	8.b-\	ży-	.	8.ee-\	ży-	.
16d/Jk	.	.	16fffJk 16bb- 16aa-\	.	.	.	.	16f\	-cia	.	16a-\	-cia	.	16b-\	-cia	.
4e-/	.	.	4ggg 4bb- 4gg\	.	.	.	.	4e-\	znój	.	4g/	znój	.	4b-\	znój	.
!	!	!	!	!	!	!	!LO:DY:rj	!	!	!LO:DY:rj	!	!	!LO:DY:rj	!	!	!LO:DY:rj
8.e-L 8.E-\	4ryy	.	8.ee-/L	f	8.e-\	za-	f	8.e-\	za-	f	8.ee-\	za-	f	8.ee-\	za-	f
16fJk 16F\	.	.	16ff/Jk	.	16f\	-pał	.	16f\	-pał	.	16ff\	-pał	.	16ff\	-pał	.
*v	*v	*	*	*	*	*	*	*	*	*	*	*	*	*	*	*
!!LO:PB:g=original
=116	=116	=116	=116	=116	=116	=116	=116	=116	=116	=116	=116	=116	=116	=116	=116
*	*	*^	*	*	*	*	*	*	*	*	*	*	*	*	*
8e-L 8E-\	.	8re	[2ee-/	.	[2.e-\	budź	.	[2.e-\	budź	.	[2.ee-\	budź	.	[2.ee-\	budź	.
8B- 8BB-\	.	(<8ggL 8g/	.	.	.	.	.	.	.	.	.	.	.	.	.	.
8d-X 8D-X\	.	8bb- 8b-/)	.	.	.	.	.	.	.	.	.	.	.	.	.	.
8c 8C'\	.	8aa- 8a-'</	.	.	.	.	.	.	.	.	.	.	.	.	.	.
8B- 8BB-'\	.	8gg 8ee-] 8g'/	4ryy	.	.	.	.	.	.	.	.	.	.	.	.	.
8d-J 8D-'\	.	8bb-J 8ee- 8b-'/	.	.	.	.	.	.	.	.	.	.	.	.	.	.
*	*	*v	*v	*	*	*	*	*	*	*	*	*	*	*	*	*
=117	=117	=117	=117	=117	=117	=117	=117	=117	=117	=117	=117	=117	=117	=117	=117
8.cL 8.C/	.	8.aa-L 8.ee- 8.a-\	.	2e-\]	.	.	2e-\]	.	.	2ee-\]	.	.	2ee-\]	.	.
16B-Jk 16BB-/	.	16bb-Jk 16ee- 16b-\	.	.	.	.	.	.	.	.	.	.	.	.	.
[2A- [2AA-/	.	[2ccc [<2ee- [2cc\	.	.	.	.	.	.	.	.	.	.	.	.	.
.	.	.	.	4r	.	.	4r	.	.	4r	.	.	4r	.	.
=118	=118	=118	=118	=118	=118	=118	=118	=118	=118	=118	=118	=118	=118	=118	=118
4A-] 4AA-/]	.	4ccc] 4ee-] 4cc\]	.	2.r	.	.	2.r	.	.	2.r	.	.	2.r	.	.
4F 4FF/	.	4aa- 4ee- 4cc 4a-\	.	.	.	.	.	.	.	.	.	.	.	.	.
4A- 4AA-/	.	4ff 4ee- 4cc 4f/	.	.	.	.	.	.	.	.	.	.	.	.	.
=119	=119	=119	=119	=119	=119	=119	=119	=119	=119	=119	=119	=119	=119	=119	=119
*	*	*^	*	*	*	*	*	*	*	*	*	*	*	*	*
2G 2GG/	.	2bb-/	2ee- 2b-\	.	4r	.	.	4r	.	.	4r	.	.	4r	.	.
.	.	.	.	.	4r	.	.	4r	.	.	4r	.	.	4r	.	.
4r	.	4r	4ryy	.	4G\	mi-	.	4B-\	mi-	p	4e-/	mi-	p	4b-\	mi-	p
*	*	*v	*v	*	*	*	*	*	*	*	*	*	*	*	*	*
=120	=120	=120	=120	=120	=120	=120	=120	=120	=120	=120	=120	=120	=120	=120	=120
2.r	.	2.r	.	2F\	-ło-	.	2c\	-ło-	.	2e-/	-ło-	.	(4b-\	-ło-	.
.	.	.	.	.	.	.	.	.	.	.	.	.	4g\)	.	.
.	.	.	.	4F\	-ści	.	4c-X\	-ści	.	4e-/	-ści	.	4a-\	-ści	.
=121	=121	=121	=121	=121	=121	=121	=121	=121	=121	=121	=121	=121	=121	=121	=121
2.r	.	2.r	.	2B-\	wą-	.	2B-\	wą-	.	(>4e-/	wą-	.	2g/	wą-	.
.	.	.	.	.	.	.	.	.	.	4c/)	.	.	.	.	.
.	.	.	.	4BB-\	-tek	.	4A-\	-tek	.	4d/	-tek	.	4f/	-tek	.
!!LO:LB:g=original
=122	=122	=122	=122	=122	=122	=122	=122	=122	=122	=122	=122	=122	=122	=122	=122
2.r	.	4r	.	4E-\	snuj,	.	4G/	snuj,	.	4B-/	snuj,	.	4e-/	snuj,	.
!	!	!LO:TX:b:i:t=marc.	!	!	!	!	!	!	!	!	!	!LO:DY:a	!	!	!
.	.	(4e-/	.	4r	.	.	4r	.	.	4e-/	za-	mf	4r	.	.
.	.	4f/	.	4r	.	.	4r	.	.	4f/	-pał	.	4r	.	.
=123	=123	=123	=123	=123	=123	=123	=123	=123	=123	=123	=123	=123	=123	=123	=123
*^	*	*^	*	*	*	*	*	*	*	*	*	*	*	*	*
4r	4ryy	.	4r	2c\	.	4r	.	.	4r	.	.	2c/	budź,	.	2.r	.	.
[2B-/	4B-\	.	(4g/	.	.	4B-\	wą-	p	4B-\	wą-	p	.	.	.	.	.	.
.	4A-\	.	4f/	4d\	.	8A-\	-tek	.	8B-\	-tek	.	4d/	mi-	.	.	.	.
.	.	.	.	.	.	8A-\	mi-	.	8B-\	mi-	.	.	.	.	.	.	.
=124	=124	=124	=124	=124	=124	=124	=124	=124	=124	=124	=124	=124	=124	=124	=124	=124	=124
4B-/]	4G\	.	4r	4.e-\))	.	(4G\	-ło-	.	(4B-\	-ło-	.	4.e-/	-ło-	.	4r	.	.
(4A-/	4F\	.	(4dd/	.	.	4F\)	.	.	4A-\)	.	.	.	.	.	4dd\	za-	.
.	.	.	.	8f\	<	.	.	<	.	.	<	8f/	-ści	<	.	.	<
4G/	4E-\	.	4cc/	8g\L	.	4E-\	-ści	.	4G\	-ści	.	8g/	wą-	.	4cc\	-pał	.
.	.	.	.	8a-\J	.	.	.	.	.	.	.	8a-/	-tek	.	.	.	.
=125	=125	=125	=125	=125	=125	=125	=125	=125	=125	=125	=125	=125	=125	=125	=125	=125	=125
4B-/)	4D\	.	4b-/)	4f\	[	4D\	snuj	[	4B-\	snuj	[	4f/	snuj,	[	4b-\	budź	[
!	!	!	!LO:TX:b:i:t=dolce	!	!	!	!	!	!	!	!	!	!	!	!	!	!
(4C 4CC/	2ryy	.	(4aa- 4een 4a-'\	2ryy	.	2r	.	.	2r	.	.	4r	.	[	2r	.	.
4BB- 4BBB-/)	.	.	4gg 4ee 4g'\)	.	.	.	.	.	.	.	.	4r	.	.	.	.	.
*v	*v	*	*	*	*	*	*	*	*	*	*	*	*	*	*	*	*
*	*	*v	*v	*	*	*	*	*	*	*	*	*	*	*	*	*
=126	=126	=126	=126	=126	=126	=126	=126	=126	=126	=126	=126	=126	=126	=126	=126
4AA- 4AAA-/	.	4ccc 4ff 4cc\	.	2.r	.	.	2.r	.	.	4r	.	.	2.r	.	.
!	!	!LO:TX:b:i:t=marc.	!	!	!	!	!	!	!	!	!	!LO:DY:a	!	!	!
4r	.	4f\	.	.	.	.	.	.	.	4f/	Wie-	mf	.	.	.
4r	.	4g\	.	.	.	.	.	.	.	4g/	-dzę	.	.	.	.
!!LO:PB:g=original
=127	=127	=127	=127	=127	=127	=127	=127	=127	=127	=127	=127	=127	=127	=127	=127
*^	*	*^	*	*	*	*	*	*	*	*	*	*	*	*	*
4r	4ryy	.	4r	(2d\	.	4r	.	.	4r	.	.	2d/	krzew,	.	2.r	.	.
[2c/	(4c\	.	(4a-/	.	p	4c\	oj-	p	4c\	oj-	p	.	.	.	.	.	.
.	4B-\	.	4g/	4en\	.	8B-\	-czyz-	.	8c\	-czyź-	.	4en/	oj-	.	.	.	.
.	.	.	.	.	.	8B-\	-nie	.	8c\	-nie	.	.	.	.	.	.	.
=128	=128	=128	=128	=128	=128	=128	=128	=128	=128	=128	=128	=128	=128	=128	=128	=128	=128
4c/]	4A-\)	.	4r	4.f\))	.	(4A-\	wier-	.	(4c\	wier-	.	4.f/	-czy-	.	4r	.	.
(4B-/	4G\	.	(4ee-/	.	<	4G\)	.	<	4B-\)	.	<	.	.	<	4ee-\	wie-	<
.	.	.	.	8g\	.	.	.	.	.	.	.	8g/	-znie	.	.	.	.
4A-/	4F\	.	4dd-X/	8a-\L	.	4F\	-nie	.	4A-\	-nie	.	8a-/	wier-	.	4dd-X\	-dzę	.
.	.	.	.	8b-\J	.	.	.	.	.	.	.	8b-/	-nie	.	.	.	.
=129	=129	=129	=129	=129	=129	=129	=129	=129	=129	=129	=129	=129	=129	=129	=129	=129	=129
4c/)	4En\	.	4cc/)	4g\	[	4En\	służ,	[	4c\	służ	[	4g/	służ,	[	4cc\	krzew,	[
!	!	!	!LO:TX:b:i:t=dolce	!	!	!	!	!	!	!	!	!	!	!	!	!	!
(4D 4DD'/	2ryy	.	(4bb- 4ff#X 4b-'\	2ryy	.	4r	.	.	4r	.	.	4r	.	.	4r	.	.
4C 4CC'/)	.	.	4aan 4ff# 4an'\)	.	.	4r	.	.	4r	.	.	4r	.	.	4r	.	.
*v	*v	*	*	*	*	*	*	*	*	*	*	*	*	*	*	*	*
=130	=130	=130	=130	=130	=130	=130	=130	=130	=130	=130	=130	=130	=130	=130	=130	=130
4BB- 4BBB-/	.	4ddd 4gg 4dd\	4ryy	.	4r	.	.	4r	.	.	4r	.	.	4r	.	.
4r	.	4g/	(4g\	p	4G\	Niech	.	4G/	Niech	p	4g/	Niech	p	4g/	Niech	p
4r	.	4an/	4a\	.	4An\	cię	.	4An/	cię	.	4an/	cię	.	4an/	cię	.
=131	=131	=131	=131	=131	=131	=131	=131	=131	=131	=131	=131	=131	=131	=131	=131	=131
*^	*	*	*	*	*	*	*	*	*	*	*	*	*	*	*	*
2.d/	4r	.	4d\	4ryy	.	(2D\	strze-	.	(<2D/	strze-	.	(4d/	strze-	.	(<2d/	strze-	.
.	(>4d\	.	(4b-/	4en\	.	.	.	.	.	.	.	4en/)	.	.	.	.	.
.	4c\	.	4a#X/	4f\)	.	8.c\)	.	.	8.d\)	.	.	4f#X/	-że	.	8.dd\)	.	.
!	!	!	!	!	!	!	!	!	!	!	!	!	!	!	!LO:N:vis=8	!	!
.	.	.	.	.	.	16c\	-że	.	16d\	-że	.	.	.	.	16dd\	-że	.
!!LO:LB:g=original
=132	=132	=132	=132	=132	=132	=132	=132	=132	=132	=132	=132	=132	=132	=132	=132	=132	=132
4d/	4B-\)	.	4dd/)	4.g\	<	(4B-\	Bóg	<	(4d\	Bóg	<	4.g/	Bóg	<	(4dd\	Bóg	<
(4c/	4An\	.	(4.ff/	.	.	4An\)	.	.	4c\)	.	.	.	.	.	4ff\)	.	.
.	.	.	.	8an\	.	.	.	.	.	.	.	8an/	od	.	.	.	.
4B-/	4G\	.	.	8b-\L	.	4G\	od	[	4B-\	od	[	8b-\	groź-	[	4ee-\	od	[
.	.	.	8ee-/	8cc\J	[	.	.	.	.	.	.	8cc\	-nych	.	.	.	.
*v	*v	*	*	*	*	*	*	*	*	*	*	*	*	*	*	*	*
=133	=133	=133	=133	=133	=133	=133	=133	=133	=133	=133	=133	=133	=133	=133	=133	=133
4d 4F#X\)	.	4dd/)	4an\	.	4F#X\	burz,	.	4d\	burz,	.	4an\	burz,	.	4dd\	burz,	.
4F#X 4FF#X/	.	4r	2ryy	f	2r	.	.	2r	.	.	2r	.	.	2r	.	.
4Gn 4GGn/	.	8.aanL 8.ff#X 8.dd 8.a\	.	.	.	.	.	.	.	.	.	.	.	.	.	.
.	.	16aaJk 16ff# 16dd 16a\	.	.	.	.	.	.	.	.	.	.	.	.	.	.
*	*	*v	*v	*	*	*	*	*	*	*	*	*	*	*	*	*
=134	=134	=134	=134	=134	=134	=134	=134	=134	=134	=134	=134	=134	=134	=134	=134
[2.D [2.DD/	.	2ddd 2aan 2ff#X 2dd\	.	2.r	.	.	2.r	.	.	2.r	.	.	2.r	.	.
.	.	8.aaL 8.ff#X 8.dd 8.an\	p	.	.	.	.	.	.	.	.	.	.	.	.
.	.	16aaJk 16ff# 16dd 16a\	.	.	.	.	.	.	.	.	.	.	.	.	.
=135	=135	=135	=135	=135	=135	=135	=135	=135	=135	=135	=135	=135	=135	=135	=135
2.D_ 2.DD/_	.	[2.ddd 2.aan 2.ff#X [2.dd\	.	2.r	.	.	2.r	.	.	2.r	.	.	2.r	.	.
=136	=136	=136	=136	=136	=136	=136	=136	=136	=136	=136	=136	=136	=136	=136	=136
*	*	*^	*	*	*	*	*	*	*	*	*	*	*	*	*
!	!	!LO:TX:b:i:t=dolce	!	!	!	!	!	!	!	!	!	!	!	!	!	!
4D] 4DD/]	.	4ddd] 4dd\]	2.aa-X 2.ffn/	.	2.r	.	.	2.r	.	.	2.r	.	.	2.r	.	.
8r	.	4ccc 4cc\	.	.	.	.	.	.	.	.	.	.	.	.	.	.
!LO:TX:b:i:t=marc.	!	!	!	!	!	!	!	!	!	!	!	!	!	!	!	!
8G'/L	.	.	.	.	.	.	.	.	.	.	.	.	.	.	.	.
8An'/	.	4bbn 4bn\	.	.	.	.	.	.	.	.	.	.	.	.	.	.
8Bn'/J	.	.	.	.	.	.	.	.	.	.	.	.	.	.	.	.
!!LO:PB:g=original
=137	=137	=137	=137	=137	=137	=137	=137	=137	=137	=137	=137	=137	=137	=137	=137	=137
4c/	.	(4ddd 4dd\	2.gg 2.een/	.	2.r	.	.	2.r	.	.	2.r	.	.	2.r	.	.
8r	.	4ccc 4cc\	.	.	.	.	.	.	.	.	.	.	.	.	.	.
8CL 8CC'/	.	.	.	.	.	.	.	.	.	.	.	.	.	.	.	.
8D 8DD'/	.	4bb-X 4b-X\)	.	.	.	.	.	.	.	.	.	.	.	.	.	.
8EnJ 8EEn'/	.	.	.	.	.	.	.	.	.	.	.	.	.	.	.	.
=138	=138	=138	=138	=138	=138	=138	=138	=138	=138	=138	=138	=138	=138	=138	=138	=138
4F 4FF/	.	(4aan 4an\	2.ee-X 2.cc/	.	2.r	.	.	2.r	.	.	2.r	.	.	2.r	.	.
8ryy	.	4gg 4g\	.	.	.	.	.	.	.	.	.	.	.	.	.	.
8F'/L	.	.	.	.	.	.	.	.	.	.	.	.	.	.	.	.
8G'/	.	4ff 4f\)	.	.	.	.	.	.	.	.	.	.	.	.	.	.
8An'/J	.	.	.	.	.	.	.	.	.	.	.	.	.	.	.	.
=139	=139	=139	=139	=139	=139	=139	=139	=139	=139	=139	=139	=139	=139	=139	=139	=139
4B-/	.	(4ccc 4cc\	2.ff 2.dd/	.	2.r	.	.	2.r	.	.	2.r	.	.	2.r	.	.
8r	.	4bb- 4b-\	.	.	.	.	.	.	.	.	.	.	.	.	.	.
8BB-L 8BBB-'/	.	.	.	.	.	.	.	.	.	.	.	.	.	.	.	.
8C 8CC'/	.	4aa-X 4a-X\)	.	.	.	.	.	.	.	.	.	.	.	.	.	.
8DJ 8DD'/	.	.	.	.	.	.	.	.	.	.	.	.	.	.	.	.
*	*	*v	*v	*	*	*	*	*	*	*	*	*	*	*	*	*
=140	=140	=140	=140	=140	=140	=140	=140	=140	=140	=140	=140	=140	=140	=140	=140
4E- 4EE-/	.	4gg 4ee- 4b- 4g\	.	4r	.	.	4r	.	.	4r	.	.	4r	.	.
*tremolo	*	*	*	*	*	*	*	*	*	*	*	*	*	*	*
!	!	!	!LO:DY:a=2	!	!	!	!	!	!	!	!	!	!	!	!
32EE-/LLL	.	4r	p	4E-\	Świę-	p	4B-\	Świę-	p	4g\	Świę-	p	4ee-\	Świę-	p
32E-/	.	.	.	.	.	.	.	.	.	.	.	.	.	.	.
32EE-/	.	.	.	.	.	.	.	.	.	.	.	.	.	.	.
32E-/	.	.	.	.	.	.	.	.	.	.	.	.	.	.	.
32EE-/	.	.	.	.	.	.	.	.	.	.	.	.	.	.	.
32E-/	.	.	.	.	.	.	.	.	.	.	.	.	.	.	.
32EE-/	.	.	.	.	.	.	.	.	.	.	.	.	.	.	.
32E-/	.	.	.	.	.	.	.	.	.	.	.	.	.	.	.
32EE-/	.	4r	.	4E-\	-ty	.	8c\L	-ty	.	8a-\L	-ty	.	4ff\	-ty	.
32E-/	.	.	.	.	.	.	.	.	.	.	.	.	.	.	.
32EE-/	.	.	.	.	.	.	.	.	.	.	.	.	.	.	.
32E-/	.	.	.	.	.	.	.	.	.	.	.	.	.	.	.
32EE-/	.	.	.	.	.	.	8B-\J	.	.	8g\J	.	.	.	.	.
32E-/	.	.	.	.	.	.	.	.	.	.	.	.	.	.	.
32EE-/	.	.	.	.	.	.	.	.	.	.	.	.	.	.	.
32E-/JJJ	.	.	.	.	.	.	.	.	.	.	.	.	.	.	.
!!LO:LB:g=original
=141	=141	=141	=141	=141	=141	=141	=141	=141	=141	=141	=141	=141	=141	=141	=141
32EE-/LLL	.	2.r	.	2E-\	żar	.	(4A-/	żar	.	(4f/	żar	.	2cc\	żar	.
32E-/	.	.	.	.	.	.	.	.	.	.	.	.	.	.	.
32EE-/	.	.	.	.	.	.	.	.	.	.	.	.	.	.	.
32E-/	.	.	.	.	.	.	.	.	.	.	.	.	.	.	.
32EE-/	.	.	.	.	.	.	.	.	.	.	.	.	.	.	.
32E-/	.	.	.	.	.	.	.	.	.	.	.	.	.	.	.
32EE-/	.	.	.	.	.	.	.	.	.	.	.	.	.	.	.
32E-/	.	.	.	.	.	.	.	.	.	.	.	.	.	.	.
32EE-/	.	.	.	.	.	.	4G/)	.	.	4b-/)	.	.	.	.	.
32E-/	.	.	.	.	.	.	.	.	.	.	.	.	.	.	.
32EE-/	.	.	.	.	.	.	.	.	.	.	.	.	.	.	.
32E-/	.	.	.	.	.	.	.	.	.	.	.	.	.	.	.
32EE-/	.	.	.	.	.	.	.	.	.	.	.	.	.	.	.
32E-/	.	.	.	.	.	.	.	.	.	.	.	.	.	.	.
32EE-/	.	.	.	.	.	.	.	.	.	.	.	.	.	.	.
32E-/	.	.	.	.	.	.	.	.	.	.	.	.	.	.	.
32EE-/	.	.	.	4E-\	niech	.	4F/	niech	.	4a-/	niech	.	4dd\	niech	.
32E-/	.	.	.	.	.	.	.	.	.	.	.	.	.	.	.
32EE-/	.	.	.	.	.	.	.	.	.	.	.	.	.	.	.
32E-/	.	.	.	.	.	.	.	.	.	.	.	.	.	.	.
32EE-/	.	.	.	.	.	.	.	.	.	.	.	.	.	.	.
32E-/	.	.	.	.	.	.	.	.	.	.	.	.	.	.	.
32EE-/	.	.	.	.	.	.	.	.	.	.	.	.	.	.	.
32E-/JJJ	.	.	.	.	.	.	.	.	.	.	.	.	.	.	.
*Xtremolo	*	*	*	*	*	*	*	*	*	*	*	*	*	*	*
=142	=142	=142	=142	=142	=142	=142	=142	=142	=142	=142	=142	=142	=142	=142	=142
!	!	!	!	!	!	!LO:HP:a	!	!	!	!	!	!	!	!	!
4.E- 4.EE-/	.	4r	.	4.E-\	w mu-	<	4B-/	pa-	.	4g/	pa-	.	4ee-\	pa-	.
.	.	4ee- 4e-/	<	.	.	.	4G/	-la	.	4e-/	-ła	.	4b-\	-ła	.
8F 8FF/	.	.	.	8F\	-rach	.	.	.	.	.	.	.	.	.	.
!	!	!LO:TX:a:i:t=marc.	!	!	!	!	!	!	!	!	!	!	!	!	!
8GL 8GG\	.	4b- 4B-/	.	8G\	two-	.	4r	.	.	4r	.	.	4r	.	.
8A-J 8AA-\	.	.	.	8A-\	-ich	.	.	.	.	.	.	.	.	.	.
=143	=143	=143	=143	=143	=143	=143	=143	=143	=143	=143	=143	=143	=143	=143	=143
8B-L 8BB-\	.	4g 4G/	.	8B-\L	pa-	[	4r	.	.	4r	.	.	4r	.	.
8cJ 8C\	.	.	.	8c\J	.	.	.	.	.	.	.	.	.	.	.
2d-X 2D-X\	.	4b- 4B-/	[	4d-X\	-ła	.	4r	.	.	4r	.	.	4r	.	.
.	.	4g 4G/	.	8.d-\	w dłu-	.	8.e-\	w dłu-	f	8.g/	w dłu-	f	8.b-\	w dłu-	f
.	.	.	.	16d-\	-gi	.	16e-\	-gi	.	16g/	-gi	.	16b-\	-gi	.
=144	=144	=144	=144	=144	=144	=144	=144	=144	=144	=144	=144	=144	=144	=144	=144
4c 4C\	.	4ee- 4e-/	.	2c\	wiek	.	2e-\	wiek	.	2a-/	wiek	.	2ee-\	wiek	.
4r	.	2r	.	.	.	.	.	.	.	.	.	.	.	.	.
4r	.	.	.	4Bn\	niech	.	4f\	niech	.	4a-/	niech	.	4ddn\	niech	.
=145	=145	=145	=145	=145	=145	=145	=145	=145	=145	=145	=145	=145	=145	=145	=145
!	!	!	!	!LO:TX:b:i:t=espress.	!	!	!LO:TX:b:i:t=espress.	!	!	!LO:TX:b:i:t=espress.	!	!	!LO:TX:b:i:t=espress.	!	!
2.r	.	2.r	.	2c\	kwi-	.	2e-\	kwi-	.	2a-/	kwi-	.	(4ff\	kwi-	.
.	.	.	.	.	.	.	.	.	.	.	.	.	4ee-\)	.	.
.	.	.	.	4A-\	-tnie	.	4e-\	-tnie	.	4a-/	-tnie	.	4cc\	-tnie	.
=146	=146	=146	=146	=146	=146	=146	=146	=146	=146	=146	=146	=146	=146	=146	=146
2.r	.	2.r	.	2B-\	two-	.	2e-\	two-	.	2g/	two-	.	2b-\	two-	.
.	.	.	.	.	.	.	.	.	.	.	.	.	.	.	.
.	.	.	.	4B-\	-ja	.	4e-\	-ja	.	4g/	-ja	.	4b-\	-ja	.
.	.	.	.	.	.	.	.	.	.	.	.	.	.	.	.
!!LO:PB:g=original
=147	=147	=147	=147	=147	=147	=147	=147	=147	=147	=147	=147	=147	=147	=147	=147
2.r	.	2.r	.	2.B-\	chwa-	>	(4e-\	chwa-	>	(>2f/	chwa-	>	[2.b-\	chwa-	>
.	.	.	.	.	.	.	.	.	.	.	.	.	.	.	.
.	.	.	.	.	.	.	4c\)	.	.	.	.	.	.	.	.
.	.	.	.	.	.	.	4d\	.	.	4a-/)	.	.	.	.	.
.	.	.	.	.	.	.	.	.	.	.	.	.	.	.	.
=148	=148	=148	=148	=148	=148	=148	=148	=148	=148	=148	=148	=148	=148	=148	=148
2.r	.	4r	.	8E-\	-ła,	]	8e-\	-ła,	]	8g/	-ła,	]	8b-\]	-ła,	]
.	.	.	.	8r	.	.	8r	.	.	8r	.	.	8r	.	.
.	.	4.gg 4.ee-\	.	4r	.	.	4r	.	.	4.ee-\	Po-	f	4.gg\	Po-	f
.	.	.	.	.	.	.	.	.	.	.	.	.	.	.	.
.	.	.	.	4r	.	.	4r	.	.	.	.	.	.	.	.
.	.	8ee- 8cc\	.	.	.	.	.	.	.	8cc\	-zdro-	.	8ee-\	-zdro-	.
=149	=149	=149	=149	=149	=149	=149	=149	=149	=149	=149	=149	=149	=149	=149	=149
4r	.	8ccL 8a-/	.	4r	.	.	4r	.	.	8a-\	-wio-	.	8cc\	-wio-	.
.	.	8b-J 8g/	.	.	.	.	.	.	.	8g\	-na	.	8b-\	-na	.
4.g 4.e-\	.	[2ee- [2cc\	f	4.e-\	Po-	f	4.g\	Po-	f	[2cc\	bądź	.	[2ee-\	bądź	.
.	.	.	.	.	.	.	.	.	.	.	.	.	.	.	.
.	.	.	.	.	.	.	.	.	.	.	.	.	.	.	.
8e- 8c\	.	.	.	8c\	-zdro-	.	8e-\	-zdro-	.	.	.	.	.	.	.
=150	=150	=150	=150	=150	=150	=150	=150	=150	=150	=150	=150	=150	=150	=150	=150
8cL 8A-\	.	4.ee-] 4.cc\]	.	8A-\	-wio-	.	8c\	-wio-	.	4.cc\]	.	.	4.ee-\]	.	.
8B-J 8G\	.	.	.	8G\	-na	.	8B-\	-na	.	.	.	.	.	.	.
[2e- [2c\	.	.	.	[2c\	bądź	.	[2e-\	bądź	.	.	.	.	.	.	.
.	.	8ccL 8a-/	.	.	.	.	.	.	.	8a-\	ty	.	8cc\	ty	.
.	.	8cc 8a-/	.	.	.	.	.	.	.	8a-\	sta-	.	8cc\	sta-	.
.	.	8ccJ 8a-/	.	.	.	.	.	.	.	8a-\	-ro-	.	8cc\	-ro-	.
.	.	.	.	.	.	.	.	.	.	.	.	.	.	.	.
=151	=151	=151	=151	=151	=151	=151	=151	=151	=151	=151	=151	=151	=151	=151	=151
4.e-] 4.c\]	.	4ee- 4g/	.	4.c\]	.	.	4.e-\]	.	.	4g\	-da-	.	4ee-\	-da-	.
.	.	4cc 4a-/	.	.	.	.	.	.	.	4a-\	-wna	.	4cc\	-wna	.
8cL 8A-\	.	.	.	8A-\	ty	.	8c\	ty	.	.	.	.	.	.	.
8c 8A-\	.	4r	.	8A-\	sta-	.	8c\	sta-	.	4r	.	.	4r	.	.
8cJ 8A-\	.	.	.	8A-\	-ro	.	8c\	-ro-	.	.	.	.	.	.	.
!!LO:LB:g=original
=152	=152	=152	=152	=152	=152	=152	=152	=152	=152	=152	=152	=152	=152	=152	=152
*	*	*	*^	*	*	*	*	*	*	*	*	*	*	*	*
4e- 4G\	.	4r	.	.	4G\	da-	.	4e-\	-da-	.	2.r	.	.	2.r	.	.
4c 4A-\	.	4r	.	.	4A-\	-wna	.	4c\	-wna	.	.	.	.	.	.	.
!	!	!	!	!LO:DY:b=2	!	!	!	!	!	!	!	!	!	!	!	!
8.A-L 8.AA-/	.	8.aa-L 8.a-\	ff	ff	4r	.	.	4r	.	.	.	.	.	.	.	.
16B-Jk 16BB-/	.	16bb-Jk 16b-\	.	.	.	.	.	.	.	.	.	.	.	.	.	.
=153	=153	=153	=153	=153	=153	=153	=153	=153	=153	=153	=153	=153	=153	=153	=153	=153
!	!	!	!	!LO:HP:b=2	!	!	!	!	!	!	!	!	!	!	!	!
4c 4C/	.	4ccc 4cc\	>	>	2.r	.	.	2.r	.	.	2.r	.	.	2.r	.	.
[2F [2FF/	.	[2ff [2f/	.	.	.	.	.	.	.	.	.	.	.	.	.	.
.	.	.	.	.	.	.	.	.	.	.	.	.	.	.	.	.
.	.	.	.	.	.	.	.	.	.	.	.	.	.	.	.	.
.	.	.	.	.	.	.	.	.	.	.	.	.	.	.	.	.
.	.	.	]]	]]	.	.	.	.	.	.	.	.	.	.	.	.
*	*	*	*v	*v	*	*	*	*	*	*	*	*	*	*	*	*
=154	=154	=154	=154	=154	=154	=154	=154	=154	=154	=154	=154	=154	=154	=154	=154
4F] 4FF/]	.	4ff] 4f/]	.	4r	.	.	4r	.	.	4r	.	.	4r	.	.
.	.	.	.	.	.	.	.	.	.	.	.	.	.	.	.
4r	.	4r	.	[4F^\	męż-	.	(>4A-^>/	męż-	p	[4e-^>/	mę-	p	(4cc^\	mę-	p
4r	.	4r	.	8.F\]	.	.	8.B-/)	.	.	8.e-/]	.	.	8.b-\)	.	.
.	.	.	.	16F\	-nych	.	16c\	-nych	.	16e-/	-żnych	.	16a-\	-żnych	.
=155	=155	=155	=155	=155	=155	=155	=155	=155	=155	=155	=155	=155	=155	=155	=155
2.r	.	4r	.	8.A-\	dziel-	<	8.B-\	dziel-	<	8.d/	dziel-	<	8.g/	dziel-	<
.	.	.	.	16A-\	-nych	.	16B-\	-nych	.	16d/	-nych	.	16f/	-nych	.
.	.	8r	.	2G\	serc	.	2B-\	serc	.	2e-/	serc	.	2b-\	serc	.
!	!	!LO:TX:b:i:t=Trombe	!	!	!	!	!	!	!	!	!	!	!	!	!
!	!	!LO:TX:a:i:t=marc.	!	!	!	!	!	!	!	!	!	!	!	!	!
.	.	16b-LL 16B-/	.	.	.	.	.	.	.	.	.	.	.	.	.
.	.	16b-JJ 16B-/	.	.	.	.	.	.	.	.	.	.	.	.	.
.	.	8gL 8G/	.	.	.	.	.	.	.	.	.	.	.	.	.
.	.	8b-J 8B-/	.	.	.	.	.	.	.	.	.	.	.	.	.
=156	=156	=156	=156	=156	=156	=156	=156	=156	=156	=156	=156	=156	=156	=156	=156
8.r	.	8.ee-L 8.e-\	.	8.E-\	męż-	.	8.e-\	męż-	.	8.g/	męż-	.	8.cc\	męż-	.
16D-X 16DD-X/	.	16bb-Jk 16gg 16ee-\	.	16d-X\	-nych	.	16e-\	-nych	.	16g/	-nych	.	16b-\	-nych	.
4C 4CC/	.	4eee- 4aa- 4ee-\	.	4.c\	serc	.	4.e-\	serc	.	4.a-/	serc	.	4.ee-\	serc	.
4r	.	4r	.	.	.	.	.	.	.	.	.	.	.	.	.
.	.	.	.	8Bn\	ko-	.	8f\	ko-	.	8a-/	ko-	.	8ddn\	ko-	.
!!LO:PB:g=original
=157	=157	=157	=157	=157	=157	=157	=157	=157	=157	=157	=157	=157	=157	=157	=157
2.r	.	2.r	.	2c\	-leb-	.	2e-\	-leb-	.	2a-\	-leb-	.	(4ff\	-leb-	.
.	.	.	.	.	.	>	.	.	>	.	.	>	4ee-\)	.	>
.	.	.	.	4A-\	-ko	.	4e-\	-ko	.	4a-\	-ko	.	4cc\	-ko	.
=158	=158	=158	=158	=158	=158	=158	=158	=158	=158	=158	=158	=158	=158	=158	=158
4r	.	4r	.	4E-\	sła-	.	4e-\	sła-	.	4g\	sła-	.	4b-\	sła-	.
4r	.	4r	.	4E-\	-wna	]	4B-\	-wna	]	4e-/	-wna	]	4g\	-wna	]
!	!	!	!LO:DY:rj	!	!	!	!	!	!	!	!	!	!	!	!
8.GL 8.GG/	.	8.ggL 8.g\	ff	4r	.	.	4r	.	.	4r	.	.	4r	.	.
16A-Jk 16AA-/	.	16aa-Jk 16a-\	.	.	.	.	.	.	.	.	.	.	.	.	.
=159	=159	=159	=159	=159	=159	=159	=159	=159	=159	=159	=159	=159	=159	=159	=159
4B- 4BB-/	.	4bb- 4b-\	.	4r	.	.	4r	.	.	4r	.	.	4r	.	.
!	!	!	!LO:DY:b=2:rj	!	!	!	!	!	!	!	!	!	!	!	!
4E- 4EE-/	.	4ee- 4e-/	f	4E-\	Świę-	p	4B-\	Świę-	p	4g/	Świę-	p	4ee-\	Świę-	p
4r	.	4r	.	4G\	-ty	.	4B-\	-ty	.	8g/L	-ty	.	4dd\	-ty	.
.	.	.	.	.	.	.	.	.	.	8f/J	.	.	.	.	.
=160	=160	=160	=160	=160	=160	=160	=160	=160	=160	=160	=160	=160	=160	=160	=160
4r	.	4r	.	(4A-\	żar	.	(8c\L	żar	.	(>8e-/L	żar	.	(4cc\	żar	.
.	.	.	.	.	.	.	8d\J)	.	.	8f/J	.	.	.	.	.
4E- 4EE-/	.	4ggg 4bb- 4gg\	f	4G\)	.	.	4e-\	.	.	4g/)	.	.	4b-\)	.	.
4G 4GG/	.	4eee- 4bb- 4ee-\	.	4r	.	.	4r	.	.	4r	.	.	4r	.	.
=161	=161	=161	=161	=161	=161	=161	=161	=161	=161	=161	=161	=161	=161	=161	=161
!	!	!LO:N:n=1:vis=8	!	!	!	!	!	!	!	!	!	!	!	!	!
8.A-L 8.AA-/	.	8.cccL 8.bb- 8.cc\	.	4r	.	.	4r	.	.	4r	.	.	4r	.	.
16FJk 16FF/	.	16dddJk 16aa- 16dd\	.	.	.	.	.	.	.	.	.	.	.	.	.
4C 4CC/	.	4eee- 4gg 4ee-\	.	8C/	w mu-	p	8c\	w mu-	p	8g/	w mu-	p	8ee-\	w mu-	p
.	.	.	.	8C/	-rach	.	8c\	-rach	.	8g/	-rach	.	8ee-\	-rach	.
4r	.	4r	.	8G\	twych	.	8B-\	twych	.	8g/	twych	.	8dd\	twych	.
.	.	.	.	8G\	niech	.	8B-\	niech	.	8g/	niech	.	8dd\	niech	.
!!LO:LB:g=original
=162	=162	=162	=162	=162	=162	=162	=162	=162	=162	=162	=162	=162	=162	=162	=162
4r	.	4r	.	4A-\	pa-	.	8c\L	pa-	.	8e-/L	pa-	.	4cc\	pa-	.
.	.	.	.	.	.	.	8d\J	.	.	8f/J	.	.	.	.	.
4G 4GG/	.	4eee- 4bb- 4ee-\	f	4G\	-łą	.	4e-\	-ła	.	4g/	-ła	.	4b-\	-ła	.
8.cL 8.C/	.	4gg 4ee- 4g/	.	4r	.	.	4r	.	.	4r	.	.	4r	.	.
16B-Jk 16BB-/	.	.	.	.	.	.	.	.	.	.	.	.	.	.	.
=163	=163	=163	=163	=163	=163	=163	=163	=163	=163	=163	=163	=163	=163	=163	=163
4A- 4AA-/	.	4ccc 4aa- 4ee- 4cc\	.	4r	.	.	4r	.	.	4r	.	.	4r	.	.
4r	.	2r	.	4A-\	w dłu-	<	4c\	w dłu-	<	4e-/	w dłu-	<	4cc\	w dłu-	<
4r	.	.	.	4A-\	-gi	.	4c\	-gi	.	4e-/	-gi	.	4cc\	-gi	.
=164	=164	=164	=164	=164	=164	=164	=164	=164	=164	=164	=164	=164	=164	=164	=164
*	*	*	*	*	*	*	*	*	*	*^	*	*	*^	*	*
2.r	.	2.r	.	2F\	wiek	.	2c\	wiek	.	2a-/	2a-\	wiek	.	2ff 2cc\	2ryy	wiek	.
.	.	.	.	4A-\	niech	.	4c\	niech	.	4a-/	4e-\	niech	.	4cc/	4cc\	niech	.
=165	=165	=165	=165	=165	=165	=165	=165	=165	=165	=165	=165	=165	=165	=165	=165	=165	=165
2.r	.	2.r	.	2F\	kwi-	.	2c\	kwi-	.	2a-/	2a-\	kwi-	.	2ff/	2cc\	kwi-	.
.	.	.	.	4A-\	-tnie	.	4c\	-tnie	.	4a-/	4e-\	-tnie	.	4cc/	4cc\	-tnie	.
=166	=166	=166	=166	=166	=166	=166	=166	=166	=166	=166	=166	=166	=166	=166	=166	=166	=166
2.r	.	2.r	.	(4F\	two-	>	(4c\	two-	>	(4a-/	4a-\	two-	>	(4ff/	2cc\	two-	>
.	.	.	.	4c\)	.	.	4e-\)	.	.	4g\)	2ryy	.	.	4ee-/)	.	.	.
.	.	.	.	4A-\	-ja	]	4c\	-ja	]	4a-/	.	-ja	]	4ff/	4cc\	-ja	]
*	*	*	*	*	*	*	*	*	*	*v	*v	*	*	*	*	*	*
!!LO:PB:g=original
=167	=167	=167	=167	=167	=167	=167	=167	=167	=167	=167	=167	=167	=167	=167	=167	=167
*	*	*^	*	*^	*	*	*	*	*	*	*	*	*	*	*	*
*tremolo	*	*	*	*	*	*	*	*	*	*	*	*	*	*	*	*	*	*
32EE-/LLL	.	4r	4rgg	.	2.B-/	2.E-\	chwa-	ff	2.e-\	chwa-	ff	2.g/	chwa-	ff	2.gg/	2.b-\	chwa-	ff
32E-/	.	.	.	.	.	.	.	.	.	.	.	.	.	.	.	.	.	.
32EE-/	.	.	.	.	.	.	.	.	.	.	.	.	.	.	.	.	.	.
32E-/	.	.	.	.	.	.	.	.	.	.	.	.	.	.	.	.	.	.
32EE-/	.	.	.	.	.	.	.	.	.	.	.	.	.	.	.	.	.	.
32E-/	.	.	.	.	.	.	.	.	.	.	.	.	.	.	.	.	.	.
32EE-/	.	.	.	.	.	.	.	.	.	.	.	.	.	.	.	.	.	.
32E-/	.	.	.	.	.	.	.	.	.	.	.	.	.	.	.	.	.	.
!	!	!	!	!LO:DY:rj	!	!	!	!	!	!	!	!	!	!	!	!	!	!
32EE-/	.	4rgg	8.e-L 8.c/	ff <	.	.	.	.	.	.	.	.	.	.	.	.	.	.
32E-/	.	.	.	.	.	.	.	.	.	.	.	.	.	.	.	.	.	.
32EE-/	.	.	.	.	.	.	.	.	.	.	.	.	.	.	.	.	.	.
32E-/	.	.	.	.	.	.	.	.	.	.	.	.	.	.	.	.	.	.
32EE-/	.	.	.	.	.	.	.	.	.	.	.	.	.	.	.	.	.	.
32E-/	.	.	.	.	.	.	.	.	.	.	.	.	.	.	.	.	.	.
32EE-/	.	.	16fJk 16d/	.	.	.	.	.	.	.	.	.	.	.	.	.	.	.
32E-/	.	.	.	.	.	.	.	.	.	.	.	.	.	.	.	.	.	.
!	!	!LO:N:n=2:vis=8	!	!	!	!	!	!	!	!	!	!	!	!	!	!	!	!
32EE-/	.	8.ccL 8.g/	8.e-\L	.	.	.	.	.	.	.	.	.	.	.	.	.	.	.
32E-/	.	.	.	.	.	.	.	.	.	.	.	.	.	.	.	.	.	.
32EE-/	.	.	.	.	.	.	.	.	.	.	.	.	.	.	.	.	.	.
32E-/	.	.	.	.	.	.	.	.	.	.	.	.	.	.	.	.	.	.
32EE-/	.	.	.	.	.	.	.	.	.	.	.	.	.	.	.	.	.	.
32E-/	.	.	.	.	.	.	.	.	.	.	.	.	.	.	.	.	.	.
32EE-/	.	16dd/Jk	16f\Jk	.	.	.	.	.	.	.	.	.	.	.	.	.	.	.
32E-/JJJ	.	.	.	.	.	.	.	.	.	.	.	.	.	.	.	.	.	.
*	*	*	*	*	*v	*v	*	*	*	*	*	*	*	*	*	*	*	*
=168	=168	=168	=168	=168	=168	=168	=168	=168	=168	=168	=168	=168	=168	=168	=168	=168	=168
*	*	*	*	*	*	*	*	*	*	*	*^	*	*	*	*	*	*
*rep	*	*	*	*	*	*	*	*	*	*	*	*	*	*	*	*	*	*
32EE-/LLL	.	8.ee-L 8.cc/	4g\	.	[2.E-\	-ła.	.	[2.B-\	-ła.	.	(2.b-/	[2.g\	-ła.	.	[2.ee-/	(2.g\	-ła.	.
32E-/	.	.	.	.	.	.	.	.	.	.	.	.	.	.	.	.	.	.
32EE-/	.	.	.	.	.	.	.	.	.	.	.	.	.	.	.	.	.	.
32E-/	.	.	.	.	.	.	.	.	.	.	.	.	.	.	.	.	.	.
32EE-/	.	.	.	.	.	.	.	.	.	.	.	.	.	.	.	.	.	.
32E-/	.	.	.	.	.	.	.	.	.	.	.	.	.	.	.	.	.	.
32EE-/	.	16ffJk 16dd/	.	.	.	.	.	.	.	.	.	.	.	.	.	.	.	.
32E-/	.	.	.	.	.	.	.	.	.	.	.	.	.	.	.	.	.	.
32EE-/	.	8.cccL 8.ee-\	4gg/	.	.	.	.	.	.	.	.	.	.	.	.	.	.	.
32E-/	.	.	.	.	.	.	.	.	.	.	.	.	.	.	.	.	.	.
32EE-/	.	.	.	.	.	.	.	.	.	.	.	.	.	.	.	.	.	.
32E-/	.	.	.	.	.	.	.	.	.	.	.	.	.	.	.	.	.	.
32EE-/	.	.	.	.	.	.	.	.	.	.	.	.	.	.	.	.	.	.
32E-/	.	.	.	.	.	.	.	.	.	.	.	.	.	.	.	.	.	.
32EE-/	.	16dddJk 16ff\	.	.	.	.	.	.	.	.	.	.	.	.	.	.	.	.
32E-/	.	.	.	.	.	.	.	.	.	.	.	.	.	.	.	.	.	.
32EE-/	.	8.eee-L 8.ccc 8.gg\	4ryy	.	.	.	.	.	.	.	.	.	.	.	.	.	.	.
32E-/	.	.	.	.	.	.	.	.	.	.	.	.	.	.	.	.	.	.
32EE-/	.	.	.	.	.	.	.	.	.	.	.	.	.	.	.	.	.	.
32E-/	.	.	.	.	.	.	.	.	.	.	.	.	.	.	.	.	.	.
32EE-/	.	.	.	.	.	.	.	.	.	.	.	.	.	.	.	.	.	.
32E-/	.	.	.	.	.	.	.	.	.	.	.	.	.	.	.	.	.	.
32EE-/	.	16fffJk 16ddd 16aa-\	.	[	.	.	.	.	.	.	.	.	.	.	.	.	.	.
32E-/JJJ	.	.	.	.	.	.	.	.	.	.	.	.	.	.	.	.	.	.
*Xtremolo	*	*	*	*	*	*	*	*	*	*	*	*	*	*	*	*	*	*
*Xrep	*	*	*	*	*	*	*	*	*	*	*	*	*	*	*	*	*	*
*	*	*v	*v	*	*	*	*	*	*	*	*v	*v	*	*	*	*	*	*
=169	=169	=169	=169	=169	=169	=169	=169	=169	=169	=169	=169	=169	=169	=169	=169	=169
4E- 4EE-/	.	4ggg 4eee- 4bb- 4gg\	.	4E-\]	.	.	4B-\]	.	.	4g\])	.	.	4ee-/]	4ee-\)	.	.
4e- 4E-\	.	4ee- 4b- 4g/	.	4r	.	.	4r	.	.	4r	.	.	4r	2ryy	.	.
!	!	!	!LO:DY:rj	!	!	!	!	!	!	!	!	!	!	!	!	!
[4A- [4AA-/	.	4ff 4cc 4f/	ff	4r	.	.	4r	.	.	4r	.	.	4r	.	.	.
*	*	*	*	*	*	*	*	*	*	*	*	*	*v	*v	*	*
=170	=170	=170	=170	=170	=170	=170	=170	=170	=170	=170	=170	=170	=170	=170	=170
8.A-]L 8.AA-/]	.	2cc 2a- 2c/	.	2.r	.	.	2.r	.	.	2.r	.	.	2.r	.	.
16GJk 16GG/	.	.	.	.	.	.	.	.	.	.	.	.	.	.	.
4F 4FF/	.	.	.	.	.	.	.	.	.	.	.	.	.	.	.
8.B-L 8.BB-/	.	4dd 4b- 4f 4d/	.	.	.	.	.	.	.	.	.	.	.	.	.
16A-Jk 16AA-/	.	.	.	.	.	.	.	.	.	.	.	.	.	.	.
=171	=171	=171	=171	=171	=171	=171	=171	=171	=171	=171	=171	=171	=171	=171	=171
*	*	*^	*	*	*	*	*	*	*	*	*	*	*	*	*
4G 4GG/	.	4.ee- 4.b- 4.e-/	2ryy	.	2.r	.	.	2.r	.	.	2.r	.	.	2.r	.	.
4E- 4EE-/	.	.	.	.	.	.	.	.	.	.	.	.	.	.	.	.
.	.	8ff 8f/	.	.	.	.	.	.	.	.	.	.	.	.	.	.
4c 4C\	.	8ggL 8g/	4ee-\	.	.	.	.	.	.	.	.	.	.	.	.	.
.	.	8aa-J 8a-/	.	.	.	.	.	.	.	.	.	.	.	.	.	.
*	*	*v	*v	*	*	*	*	*	*	*	*	*	*	*	*	*
!!LO:LB:g=original
=172	=172	=172	=172	=172	=172	=172	=172	=172	=172	=172	=172	=172	=172	=172	=172
2B- 2BB-\	.	2bb- 2ff 2dd 2b-\	.	2.ryy	.	.	2.ryy	.	.	2.ryy	.	.	2.ryy	.	.
4F 4FF/	.	4aa- 4ff 4cc 4a-\	.	.	.	.	.	.	.	.	.	.	.	.	.
=173	=173	=173	=173	=173	=173	=173	=173	=173	=173	=173	=173	=173	=173	=173	=173
8.GL 8.GG/	.	4gg 4dd 4b- 4g/	.	2.ryy	.	.	2.ryy	.	.	2.ryy	.	.	2.ryy	.	.
16A-Jk 16AA-/	.	.	.	.	.	.	.	.	.	.	.	.	.	.	.
4B- 4BB-\	.	4ff 4dd 4b- 4f/	.	.	.	.	.	.	.	.	.	.	.	.	.
4c 4C\	.	4ee- 4cc 4g 4e-/	.	.	.	.	.	.	.	.	.	.	.	.	.
=174	=174	=174	=174	=174	=174	=174	=174	=174	=174	=174	=174	=174	=174	=174	=174
8.A-L 8.AA-/	.	4ff 4cc 4f/	.	2.ryy	.	.	2.ryy	.	.	2.ryy	.	.	2.ryy	.	.
16GJk 16GG/	.	.	.	.	.	.	.	.	.	.	.	.	.	.	.
4F 4FF/	.	4cc 4a- 4c/	.	.	.	.	.	.	.	.	.	.	.	.	.
4B- 4BB-/	.	4dd 4b- 4a- 4d/	.	.	.	.	.	.	.	.	.	.	.	.	.
=175	=175	=175	=175	=175	=175	=175	=175	=175	=175	=175	=175	=175	=175	=175	=175
4E- 4EE-/	.	4ee- 4b- 4g 4e-/	.	2.ryy	.	.	2.ryy	.	.	2.ryy	.	.	2.ryy	.	.
4r	.	4r	.	.	.	.	.	.	.	.	.	.	.	.	.
4r	.	4r	.	.	.	.	.	.	.	.	.	.	.	.	.
==	==	==	==	==	==	==	==	==	==	==	==	==	==	==	==
*-	*-	*-	*-	*-	*-	*-	*-	*-	*-	*-	*-	*-	*-	*-	*-
!!!system-decoration: [(g1)]{(g2)}
!!!RDF**kern: > = above
!!!RDF**kern: < = below
!!!ENC: Katarzyna Serwa
!!!END: 2022-03-23
!!!ENC: Berenika Jozajtis
!!!END: 2022-03-21
